G21 (This is GCode, generated with Skeinforge version 35 from ReplicatorG)
G21 (Ultimaker profile - Quality print - alterations/start-centered.gcode)
G21 (Metric: The unit is a millimeter)
M18 (Disable motors for now, to allow manual moving of the head)
G90 (Absolute Positioning)
G92 X0 Y0 Z0 E0 (set origin to current position)
M1 (Check if the platform is empty before continuing)
G1 X-220.0 Y-220.0 F2000 (ensure you're in the front left corner)
G92 X-110 Y-110 Z220 E0 (make the center the origin)
G1 X0.0 Y0.0 F3000 (go back to the center)
G1 Z210.0 F100 (let the platform go up slightly, start slowly)
G1 Z0.0 F400 (we don't have all day...)
G92 X0 Y0 Z0 E0 (make the center the origin)
G91 (Relative positioning)
G1 Z35.0 F400 (lower platform for cleaning nozzle)
G92 E0 (zero the extruded length)
G1 E260 F1000 (extrude some to get the flow going)
G1 E-20 F3000 (reverse a little)
G92 E0 (zero the extruded length)
M1 (Clean the nozzle and press YES to continue...)
G1 Z-1.0 F100 (rise platform again)
G1 Z-34.0 F400 (rise platform again)
G90 
G1 Z0.4
G92 E0 (zero the extruded length)
G21 (end of start .gcode file)
G90
G21
;M103
M105
M106
M113 S1.0
;M108 S50.04
M104 S245.0
;M108 S52.54
G1 X-72.18 Y-58.54 Z0.3 F1620.0
;M101
G1 X-72.18 Y58.54 Z0.3 F1620.0 E227.815
G1 X72.18 Y58.54 Z0.3 F1620.0 E508.729
G1 X72.18 Y-58.54 Z0.3 F1620.0 E736.545
G1 X-72.18 Y-58.54 Z0.3 F1620.0 E1017.459
;M103
G1 X6.54 Y-6.49 Z0.3 F2880.0
;M101
G1 X17.66 Y4.63 Z0.3 F1920.0 E1043.287
G1 X17.07 Y4.63 Z0.3 F1920.0 E1044.256
G1 X6.08 Y-6.36 Z0.3 F1920.0 E1069.781
G1 X5.62 Y-6.23 Z0.3 F1920.0 E1070.567
G1 X16.48 Y4.64 Z0.3 F1920.0 E1095.792
G1 X15.9 Y4.64 Z0.3 F1920.0 E1096.76
G1 X5.16 Y-6.1 Z0.3 F1920.0 E1121.683
G1 X4.7 Y-5.96 Z0.3 F1920.0 E1122.47
G1 X15.31 Y4.64 Z0.3 F1920.0 E1147.093
G1 X14.72 Y4.65 Z0.3 F1920.0 E1148.06
G1 X4.24 Y-5.83 Z0.3 F1920.0 E1172.381
G1 X3.78 Y-5.7 Z0.3 F1920.0 E1173.168
G1 X14.13 Y4.65 Z0.3 F1920.0 E1197.188
G1 X13.54 Y4.65 Z0.3 F1920.0 E1198.155
G1 X3.32 Y-5.56 Z0.3 F1920.0 E1221.874
G1 X2.86 Y-5.43 Z0.3 F1920.0 E1222.66
G1 X12.95 Y4.66 Z0.3 F1920.0 E1246.077
G1 X12.36 Y4.66 Z0.3 F1920.0 E1247.044
G1 X2.4 Y-5.3 Z0.3 F1920.0 E1270.16
G1 X1.94 Y-5.17 Z0.3 F1920.0 E1270.945
G1 X11.77 Y4.66 Z0.3 F1920.0 E1293.761
G1 X11.18 Y4.66 Z0.3 F1920.0 E1294.728
G1 X1.49 Y-5.03 Z0.3 F1920.0 E1317.242
G1 X1.02 Y-4.9 Z0.3 F1920.0 E1318.028
G1 X10.59 Y4.67 Z0.3 F1920.0 E1340.24
G1 X10.0 Y4.67 Z0.3 F1920.0 E1341.207
G1 X0.57 Y-4.77 Z0.3 F1920.0 E1363.118
G1 X0.11 Y-4.63 Z0.3 F1920.0 E1363.904
G1 X9.41 Y4.67 Z0.3 F1920.0 E1385.515
G1 X9.0 Y4.86 Z0.3 F1920.0 E1386.25
G1 X-12.75 Y-16.9 Z0.3 F1920.0 E1436.772
G1 X-12.25 Y-16.99 Z0.3 F1920.0 E1437.617
G1 X-0.09 Y-4.83 Z0.3 F1920.0 E1465.841
;M103
G1 X-9.52 Y-15.45 Z0.3 F2880.0
;M101
G1 X-0.97 Y-6.89 Z0.3 F1920.0 E1485.712
G1 X-0.53 Y-5.86 Z0.3 F1920.0 E1487.547
;M103
G1 X-1.32 Y-6.65 Z0.3 F2880.0
;M101
G1 X-12.13 Y-17.46 Z0.3 F1920.0 E1512.649
G1 X-12.01 Y-17.94 Z0.3 F1920.0 E1513.452
G1 X-11.16 Y-17.09 Z0.3 F1920.0 E1515.421
G1 X-11.05 Y-17.56 Z0.3 F1920.0 E1516.223
G1 X-11.9 Y-18.41 Z0.3 F1920.0 E1518.197
G1 X-11.78 Y-18.89 Z0.3 F1920.0 E1519.002
G1 X-10.93 Y-18.04 Z0.3 F1920.0 E1520.981
G1 X-10.81 Y-18.51 Z0.3 F1920.0 E1521.784
G1 X-11.66 Y-19.36 Z0.3 F1920.0 E1523.767
G1 X-11.55 Y-19.84 Z0.3 F1920.0 E1524.571
G1 X-10.69 Y-18.98 Z0.3 F1920.0 E1526.561
G1 X-10.57 Y-19.46 Z0.3 F1920.0 E1527.363
G1 X-11.43 Y-20.32 Z0.3 F1920.0 E1529.358
G1 X-11.31 Y-20.79 Z0.3 F1920.0 E1530.162
G1 X-10.45 Y-19.93 Z0.3 F1920.0 E1532.164
G1 X-10.33 Y-20.4 Z0.3 F1920.0 E1532.966
G1 X-11.2 Y-21.27 Z0.3 F1920.0 E1534.971
G1 X-11.08 Y-21.74 Z0.3 F1920.0 E1535.776
G1 X-10.21 Y-20.88 Z0.3 F1920.0 E1537.787
G1 X-10.09 Y-21.35 Z0.3 F1920.0 E1538.589
G1 X-10.96 Y-22.22 Z0.3 F1920.0 E1540.606
G1 X-10.85 Y-22.69 Z0.3 F1920.0 E1541.411
G1 X-9.98 Y-21.82 Z0.3 F1920.0 E1543.432
G1 X-9.86 Y-22.3 Z0.3 F1920.0 E1544.234
G1 X-10.73 Y-23.17 Z0.3 F1920.0 E1546.259
G1 X-10.61 Y-23.65 Z0.3 F1920.0 E1547.063
G1 X-9.74 Y-22.77 Z0.3 F1920.0 E1549.095
G1 X-9.62 Y-23.24 Z0.3 F1920.0 E1549.898
G1 X-10.5 Y-24.12 Z0.3 F1920.0 E1551.934
G1 X-10.38 Y-24.6 Z0.3 F1920.0 E1552.737
G1 X-9.5 Y-23.72 Z0.3 F1920.0 E1554.778
G1 X-9.38 Y-24.19 Z0.3 F1920.0 E1555.581
G1 X-10.26 Y-25.07 Z0.3 F1920.0 E1557.627
G1 X-10.15 Y-25.55 Z0.3 F1920.0 E1558.432
G1 X-9.26 Y-24.66 Z0.3 F1920.0 E1560.485
G1 X-9.14 Y-25.14 Z0.3 F1920.0 E1561.287
G1 X-10.03 Y-26.02 Z0.3 F1920.0 E1563.344
G1 X-9.91 Y-26.5 Z0.3 F1920.0 E1564.147
G1 X-9.02 Y-25.61 Z0.3 F1920.0 E1566.21
G1 X-8.91 Y-26.09 Z0.3 F1920.0 E1567.012
G1 X-9.8 Y-26.98 Z0.3 F1920.0 E1569.079
G1 X-9.68 Y-27.45 Z0.3 F1920.0 E1569.884
G1 X-8.79 Y-26.56 Z0.3 F1920.0 E1571.956
G1 X-8.67 Y-27.03 Z0.3 F1920.0 E1572.758
G1 X-9.56 Y-27.93 Z0.3 F1920.0 E1574.837
G1 X-9.45 Y-28.4 Z0.3 F1920.0 E1575.64
G1 X-8.55 Y-27.51 Z0.3 F1920.0 E1577.723
G1 X-8.43 Y-27.98 Z0.3 F1920.0 E1578.525
G1 X-9.33 Y-28.88 Z0.3 F1920.0 E1580.612
G1 X-9.21 Y-29.35 Z0.3 F1920.0 E1581.417
G1 X-8.31 Y-28.45 Z0.3 F1920.0 E1583.511
G1 X-8.19 Y-28.93 Z0.3 F1920.0 E1584.314
G1 X-9.1 Y-29.83 Z0.3 F1920.0 E1586.411
G1 X-8.98 Y-30.31 Z0.3 F1920.0 E1587.216
G1 X-8.07 Y-29.4 Z0.3 F1920.0 E1589.32
G1 X-7.95 Y-29.87 Z0.3 F1920.0 E1590.122
G1 X-8.86 Y-30.78 Z0.3 F1920.0 E1592.232
G1 X-8.75 Y-31.26 Z0.3 F1920.0 E1593.037
G1 X-7.84 Y-30.35 Z0.3 F1920.0 E1595.152
G1 X-7.72 Y-30.82 Z0.3 F1920.0 E1595.954
G1 X-8.63 Y-31.73 Z0.3 F1920.0 E1598.072
G1 X-8.51 Y-32.21 Z0.3 F1920.0 E1598.876
G1 X-7.6 Y-31.29 Z0.3 F1920.0 E1601.001
G1 X-7.48 Y-31.77 Z0.3 F1920.0 E1601.803
G1 X-8.4 Y-32.68 Z0.3 F1920.0 E1603.932
G1 X-8.28 Y-33.16 Z0.3 F1920.0 E1604.735
G1 X-7.36 Y-32.24 Z0.3 F1920.0 E1606.869
G1 X-7.24 Y-32.71 Z0.3 F1920.0 E1607.672
G1 X-8.16 Y-33.64 Z0.3 F1920.0 E1609.811
G1 X-8.05 Y-34.11 Z0.3 F1920.0 E1610.616
G1 X-7.12 Y-33.19 Z0.3 F1920.0 E1612.762
G1 X-7.0 Y-33.66 Z0.3 F1920.0 E1613.564
G1 X-7.93 Y-34.59 Z0.3 F1920.0 E1615.714
G1 X-7.81 Y-35.06 Z0.3 F1920.0 E1616.517
G1 X-6.88 Y-34.13 Z0.3 F1920.0 E1618.673
G1 X-6.77 Y-34.61 Z0.3 F1920.0 E1619.474
G1 X-7.19 Y-35.03 Z0.3 F1920.0 E1620.449
;M103
G1 X-10.32 Y-17.11 Z0.3 F3600.0
G1 X-8.82 Y-16.5 Z0.3 F3600.0
G1 X-0.5 Y-31.58 Z0.3 F3600.0
G1 X0.12 Y-31.27 Z0.3 F2880.0
;M101
G1 X1.42 Y-29.98 Z0.3 F1920.0 E1623.461
G1 X1.64 Y-30.35 Z0.3 F1920.0 E1624.171
G1 X0.33 Y-31.66 Z0.3 F1920.0 E1627.207
G1 X0.54 Y-32.04 Z0.3 F1920.0 E1627.924
G1 X1.86 Y-30.72 Z0.3 F1920.0 E1630.986
G1 X2.08 Y-31.1 Z0.3 F1920.0 E1631.697
G1 X0.75 Y-32.43 Z0.3 F1920.0 E1634.786
G1 X0.96 Y-32.81 Z0.3 F1920.0 E1635.503
G1 X2.3 Y-31.47 Z0.3 F1920.0 E1638.619
G1 X2.52 Y-31.84 Z0.3 F1920.0 E1639.329
G1 X1.16 Y-33.2 Z0.3 F1920.0 E1642.471
G1 X1.37 Y-33.58 Z0.3 F1920.0 E1643.188
G1 X2.74 Y-32.22 Z0.3 F1920.0 E1646.355
G1 X2.96 Y-32.59 Z0.3 F1920.0 E1647.066
G1 X1.58 Y-33.96 Z0.3 F1920.0 E1650.261
G1 X1.79 Y-34.35 Z0.3 F1920.0 E1650.979
G1 X3.17 Y-32.96 Z0.3 F1920.0 E1654.198
G1 X3.39 Y-33.33 Z0.3 F1920.0 E1654.908
G1 X2.0 Y-34.73 Z0.3 F1920.0 E1658.153
G1 X2.2 Y-35.12 Z0.3 F1920.0 E1658.87
G1 X3.61 Y-33.71 Z0.3 F1920.0 E1662.142
G1 X3.83 Y-34.08 Z0.3 F1920.0 E1662.852
G1 X2.41 Y-35.5 Z0.3 F1920.0 E1666.151
G1 X2.62 Y-35.89 Z0.3 F1920.0 E1666.868
G1 X4.05 Y-34.45 Z0.3 F1920.0 E1670.192
G1 X4.27 Y-34.83 Z0.3 F1920.0 E1670.904
G1 X2.83 Y-36.27 Z0.3 F1920.0 E1674.253
G1 X3.04 Y-36.65 Z0.3 F1920.0 E1674.97
G1 X4.49 Y-35.2 Z0.3 F1920.0 E1678.345
G1 X4.71 Y-35.57 Z0.3 F1920.0 E1679.056
G1 X3.25 Y-37.04 Z0.3 F1920.0 E1682.458
G1 X3.45 Y-37.42 Z0.3 F1920.0 E1683.175
G1 X4.93 Y-35.95 Z0.3 F1920.0 E1686.602
G1 X5.15 Y-36.32 Z0.3 F1920.0 E1687.312
G1 X3.66 Y-37.81 Z0.3 F1920.0 E1690.765
G1 X3.87 Y-38.19 Z0.3 F1920.0 E1691.482
G1 X5.37 Y-36.69 Z0.3 F1920.0 E1694.962
G1 X5.59 Y-37.07 Z0.3 F1920.0 E1695.672
G1 X4.08 Y-38.57 Z0.3 F1920.0 E1699.177
G1 X4.29 Y-38.96 Z0.3 F1920.0 E1699.895
G1 X5.81 Y-37.44 Z0.3 F1920.0 E1703.427
G1 X6.03 Y-37.81 Z0.3 F1920.0 E1704.138
G1 X4.49 Y-39.34 Z0.3 F1920.0 E1707.695
G1 X4.7 Y-39.73 Z0.3 F1920.0 E1708.412
G1 X6.25 Y-38.18 Z0.3 F1920.0 E1711.995
G1 X6.47 Y-38.56 Z0.3 F1920.0 E1712.706
G1 X4.91 Y-40.11 Z0.3 F1920.0 E1716.316
G1 X5.12 Y-40.5 Z0.3 F1920.0 E1717.034
G1 X6.68 Y-38.93 Z0.3 F1920.0 E1720.67
G1 X6.9 Y-39.3 Z0.3 F1920.0 E1721.381
G1 X5.33 Y-40.88 Z0.3 F1920.0 E1725.042
G1 X5.53 Y-41.26 Z0.3 F1920.0 E1725.759
G1 X7.12 Y-39.68 Z0.3 F1920.0 E1729.448
G1 X7.34 Y-40.05 Z0.3 F1920.0 E1730.158
G1 X5.74 Y-41.65 Z0.3 F1920.0 E1733.872
G1 X5.95 Y-42.03 Z0.3 F1920.0 E1734.591
G1 X7.56 Y-40.42 Z0.3 F1920.0 E1738.331
G1 X7.78 Y-40.8 Z0.3 F1920.0 E1739.042
G1 X6.16 Y-42.42 Z0.3 F1920.0 E1742.808
G1 X6.37 Y-42.8 Z0.3 F1920.0 E1743.525
G1 X8.0 Y-41.17 Z0.3 F1920.0 E1747.317
G1 X8.22 Y-41.54 Z0.3 F1920.0 E1748.027
G1 X6.58 Y-43.19 Z0.3 F1920.0 E1751.844
G1 X6.78 Y-43.57 Z0.3 F1920.0 E1752.563
G1 X8.44 Y-41.91 Z0.3 F1920.0 E1756.408
G1 X8.66 Y-42.29 Z0.3 F1920.0 E1757.118
G1 X6.99 Y-43.95 Z0.3 F1920.0 E1760.989
G1 X7.2 Y-44.34 Z0.3 F1920.0 E1761.706
G1 X8.88 Y-42.66 Z0.3 F1920.0 E1765.603
G1 X9.1 Y-43.03 Z0.3 F1920.0 E1766.313
G1 X7.41 Y-44.72 Z0.3 F1920.0 E1770.235
G1 X7.62 Y-45.11 Z0.3 F1920.0 E1770.952
G1 X9.32 Y-43.41 Z0.3 F1920.0 E1774.899
G1 X9.54 Y-43.78 Z0.3 F1920.0 E1775.61
G1 X7.82 Y-45.49 Z0.3 F1920.0 E1779.586
G1 X8.03 Y-45.88 Z0.3 F1920.0 E1780.303
G1 X9.76 Y-44.15 Z0.3 F1920.0 E1784.303
G1 X9.97 Y-44.53 Z0.3 F1920.0 E1785.014
G1 X8.24 Y-46.26 Z0.3 F1920.0 E1789.04
G1 X8.45 Y-46.64 Z0.3 F1920.0 E1789.757
G1 X10.19 Y-44.9 Z0.3 F1920.0 E1793.81
G1 X10.41 Y-45.27 Z0.3 F1920.0 E1794.52
G1 X8.66 Y-47.03 Z0.3 F1920.0 E1798.6
G1 X8.87 Y-47.41 Z0.3 F1920.0 E1799.318
G1 X10.63 Y-45.64 Z0.3 F1920.0 E1803.423
G1 X10.85 Y-46.02 Z0.3 F1920.0 E1804.133
G1 X9.38 Y-47.49 Z0.3 F1920.0 E1807.563
;M103
G1 X10.49 Y-46.97 Z0.3 F2880.0
;M101
G1 X11.07 Y-46.39 Z0.3 F1920.0 E1808.907
;M103
G1 X-0.09 Y-30.89 Z0.3 F2880.0
;M101
G1 X1.2 Y-29.6 Z0.3 F1920.0 E1811.893
G1 X0.98 Y-29.23 Z0.3 F1920.0 E1812.604
G1 X-0.29 Y-30.51 Z0.3 F1920.0 E1815.562
G1 X-0.5 Y-30.12 Z0.3 F1920.0 E1816.279
G1 X0.76 Y-28.86 Z0.3 F1920.0 E1819.212
G1 X0.54 Y-28.49 Z0.3 F1920.0 E1819.922
G1 X-0.71 Y-29.74 Z0.3 F1920.0 E1822.829
G1 X-0.92 Y-29.35 Z0.3 F1920.0 E1823.546
G1 X0.32 Y-28.11 Z0.3 F1920.0 E1826.427
G1 X0.1 Y-27.74 Z0.3 F1920.0 E1827.137
G1 X-1.13 Y-28.97 Z0.3 F1920.0 E1829.992
G1 X-1.34 Y-28.58 Z0.3 F1920.0 E1830.711
G1 X-0.12 Y-27.37 Z0.3 F1920.0 E1833.539
G1 X-0.34 Y-26.99 Z0.3 F1920.0 E1834.249
G1 X-1.54 Y-28.2 Z0.3 F1920.0 E1837.052
G1 X-1.75 Y-27.82 Z0.3 F1920.0 E1837.769
G1 X-0.56 Y-26.62 Z0.3 F1920.0 E1840.546
G1 X-0.78 Y-26.25 Z0.3 F1920.0 E1841.257
G1 X-1.96 Y-27.43 Z0.3 F1920.0 E1844.007
G1 X-2.17 Y-27.05 Z0.3 F1920.0 E1844.726
G1 X-0.99 Y-25.87 Z0.3 F1920.0 E1847.449
G1 X-1.21 Y-25.5 Z0.3 F1920.0 E1848.16
G1 X-2.38 Y-26.66 Z0.3 F1920.0 E1850.858
G1 X-2.58 Y-26.28 Z0.3 F1920.0 E1851.575
G1 X-1.43 Y-25.13 Z0.3 F1920.0 E1854.246
G1 X-1.65 Y-24.76 Z0.3 F1920.0 E1854.956
G1 X-2.79 Y-25.9 Z0.3 F1920.0 E1857.603
G1 X-3.0 Y-25.51 Z0.3 F1920.0 E1858.322
G1 X-1.87 Y-24.38 Z0.3 F1920.0 E1860.942
G1 X-2.09 Y-24.01 Z0.3 F1920.0 E1861.653
G1 X-3.21 Y-25.13 Z0.3 F1920.0 E1864.247
G1 X-3.42 Y-24.74 Z0.3 F1920.0 E1864.964
G1 X-2.31 Y-23.64 Z0.3 F1920.0 E1867.532
G1 X-2.53 Y-23.26 Z0.3 F1920.0 E1868.243
G1 X-3.62 Y-24.36 Z0.3 F1920.0 E1870.784
G1 X-3.83 Y-23.97 Z0.3 F1920.0 E1871.503
G1 X-2.75 Y-22.89 Z0.3 F1920.0 E1874.017
G1 X-2.97 Y-22.52 Z0.3 F1920.0 E1874.728
G1 X-4.04 Y-23.59 Z0.3 F1920.0 E1877.218
G1 X-4.25 Y-23.21 Z0.3 F1920.0 E1877.935
G1 X-3.19 Y-22.14 Z0.3 F1920.0 E1880.399
G1 X-3.41 Y-21.77 Z0.3 F1920.0 E1881.109
G1 X-4.46 Y-22.82 Z0.3 F1920.0 E1883.547
G1 X-4.67 Y-22.44 Z0.3 F1920.0 E1884.265
G1 X-3.63 Y-21.4 Z0.3 F1920.0 E1886.677
G1 X-3.85 Y-21.03 Z0.3 F1920.0 E1887.388
G1 X-4.87 Y-22.05 Z0.3 F1920.0 E1889.772
G1 X-5.08 Y-21.67 Z0.3 F1920.0 E1890.489
G1 X-4.07 Y-20.65 Z0.3 F1920.0 E1892.848
G1 X-4.29 Y-20.28 Z0.3 F1920.0 E1893.559
G1 X-5.29 Y-21.28 Z0.3 F1920.0 E1895.892
G1 X-5.5 Y-20.9 Z0.3 F1920.0 E1896.61
G1 X-4.5 Y-19.91 Z0.3 F1920.0 E1898.918
G1 X-4.72 Y-19.53 Z0.3 F1920.0 E1899.628
G1 X-5.71 Y-20.52 Z0.3 F1920.0 E1901.909
G1 X-5.91 Y-20.13 Z0.3 F1920.0 E1902.626
G1 X-4.94 Y-19.16 Z0.3 F1920.0 E1904.881
G1 X-5.16 Y-18.79 Z0.3 F1920.0 E1905.591
G1 X-6.12 Y-19.75 Z0.3 F1920.0 E1907.82
G1 X-6.33 Y-19.36 Z0.3 F1920.0 E1908.537
G1 X-5.38 Y-18.41 Z0.3 F1920.0 E1910.741
G1 X-5.6 Y-18.04 Z0.3 F1920.0 E1911.452
G1 X-6.54 Y-18.98 Z0.3 F1920.0 E1913.627
G1 X-6.75 Y-18.59 Z0.3 F1920.0 E1914.344
G1 X-5.82 Y-17.67 Z0.3 F1920.0 E1916.495
G1 X-6.04 Y-17.3 Z0.3 F1920.0 E1917.205
G1 X-6.96 Y-18.21 Z0.3 F1920.0 E1919.33
G1 X-7.16 Y-17.83 Z0.3 F1920.0 E1920.048
G1 X-6.26 Y-16.92 Z0.3 F1920.0 E1922.147
G1 X-6.48 Y-16.55 Z0.3 F1920.0 E1922.857
G1 X-7.37 Y-17.44 Z0.3 F1920.0 E1924.929
G1 X-7.58 Y-17.06 Z0.3 F1920.0 E1925.646
G1 X-6.7 Y-16.18 Z0.3 F1920.0 E1927.692
G1 X-6.92 Y-15.8 Z0.3 F1920.0 E1928.402
G1 X-7.79 Y-16.67 Z0.3 F1920.0 E1930.422
G1 X-8.0 Y-16.29 Z0.3 F1920.0 E1931.139
G1 X-7.14 Y-15.43 Z0.3 F1920.0 E1933.134
;M103
G1 X-6.36 Y-15.15 Z0.3 F3600.0
G1 X-4.69 Y-13.74 Z0.3 F3600.0
G1 X-1.29 Y-17.08 Z0.3 F3600.0
G1 X3.83 Y-19.3 Z0.3 F3600.0
G1 X-2.87 Y-12.12 Z0.3 F3600.0
G1 X-1.57 Y-10.5 Z0.3 F3600.0
G1 X21.12 Y-24.4 Z0.3 F3600.0
G1 X29.0 Y-27.28 Z0.3 F2880.0
;M101
G1 X28.27 Y-28.01 Z0.3 F1920.0 E1934.823
G1 X27.91 Y-27.78 Z0.3 F1920.0 E1935.53
G1 X29.93 Y-25.75 Z0.3 F1920.0 E1940.241
G1 X29.56 Y-25.54 Z0.3 F1920.0 E1940.954
G1 X27.54 Y-27.55 Z0.3 F1920.0 E1945.638
G1 X27.17 Y-27.33 Z0.3 F1920.0 E1946.344
G1 X29.18 Y-25.32 Z0.3 F1920.0 E1951.001
G1 X28.8 Y-25.11 Z0.3 F1920.0 E1951.714
G1 X26.81 Y-27.1 Z0.3 F1920.0 E1956.342
G1 X26.44 Y-26.87 Z0.3 F1920.0 E1957.048
G1 X28.42 Y-24.89 Z0.3 F1920.0 E1961.648
G1 X28.04 Y-24.68 Z0.3 F1920.0 E1962.362
G1 X26.08 Y-26.65 Z0.3 F1920.0 E1966.934
G1 X25.71 Y-26.42 Z0.3 F1920.0 E1967.64
G1 X27.67 Y-24.46 Z0.3 F1920.0 E1972.184
G1 X27.29 Y-24.25 Z0.3 F1920.0 E1972.898
G1 X25.34 Y-26.19 Z0.3 F1920.0 E1977.414
G1 X24.98 Y-25.97 Z0.3 F1920.0 E1978.12
G1 X26.91 Y-24.04 Z0.3 F1920.0 E1982.609
G1 X26.53 Y-23.82 Z0.3 F1920.0 E1983.323
G1 X24.61 Y-25.74 Z0.3 F1920.0 E1987.783
G1 X24.25 Y-25.52 Z0.3 F1920.0 E1988.49
G1 X26.15 Y-23.61 Z0.3 F1920.0 E1992.922
G1 X25.78 Y-23.39 Z0.3 F1920.0 E1993.635
G1 X23.88 Y-25.29 Z0.3 F1920.0 E1998.04
G1 X23.51 Y-25.06 Z0.3 F1920.0 E1998.747
G1 X25.4 Y-23.18 Z0.3 F1920.0 E2003.124
G1 X25.02 Y-22.96 Z0.3 F1920.0 E2003.837
G1 X23.15 Y-24.84 Z0.3 F1920.0 E2008.186
G1 X22.78 Y-24.61 Z0.3 F1920.0 E2008.893
G1 X24.64 Y-22.75 Z0.3 F1920.0 E2013.215
G1 X24.26 Y-22.53 Z0.3 F1920.0 E2013.928
G1 X22.42 Y-24.38 Z0.3 F1920.0 E2018.22
G1 X22.05 Y-24.16 Z0.3 F1920.0 E2018.927
G1 X23.89 Y-22.32 Z0.3 F1920.0 E2023.193
G1 X23.51 Y-22.11 Z0.3 F1920.0 E2023.906
G1 X21.68 Y-23.93 Z0.3 F1920.0 E2028.143
G1 X21.32 Y-23.7 Z0.3 F1920.0 E2028.85
G1 X23.13 Y-21.89 Z0.3 F1920.0 E2033.059
G1 X22.75 Y-21.68 Z0.3 F1920.0 E2033.773
G1 X20.95 Y-23.48 Z0.3 F1920.0 E2037.955
G1 X20.59 Y-23.25 Z0.3 F1920.0 E2038.661
G1 X22.38 Y-21.46 Z0.3 F1920.0 E2042.815
G1 X22.0 Y-21.25 Z0.3 F1920.0 E2043.529
G1 X20.22 Y-23.02 Z0.3 F1920.0 E2047.655
G1 X19.85 Y-22.8 Z0.3 F1920.0 E2048.361
G1 X21.62 Y-21.03 Z0.3 F1920.0 E2052.46
G1 X21.24 Y-20.82 Z0.3 F1920.0 E2053.174
G1 X19.49 Y-22.57 Z0.3 F1920.0 E2057.244
G1 X19.12 Y-22.35 Z0.3 F1920.0 E2057.95
G1 X20.86 Y-20.6 Z0.3 F1920.0 E2061.993
G1 X20.49 Y-20.39 Z0.3 F1920.0 E2062.706
G1 X18.76 Y-22.12 Z0.3 F1920.0 E2066.72
G1 X18.39 Y-21.89 Z0.3 F1920.0 E2067.426
G1 X20.11 Y-20.18 Z0.3 F1920.0 E2071.413
G1 X19.73 Y-19.96 Z0.3 F1920.0 E2072.126
G1 X18.02 Y-21.67 Z0.3 F1920.0 E2076.084
G1 X17.66 Y-21.44 Z0.3 F1920.0 E2076.79
G1 X19.35 Y-19.75 Z0.3 F1920.0 E2080.721
G1 X18.97 Y-19.53 Z0.3 F1920.0 E2081.434
G1 X17.29 Y-21.21 Z0.3 F1920.0 E2085.337
G1 X16.93 Y-20.99 Z0.3 F1920.0 E2086.045
G1 X18.6 Y-19.32 Z0.3 F1920.0 E2089.92
G1 X18.22 Y-19.1 Z0.3 F1920.0 E2090.633
G1 X16.56 Y-20.76 Z0.3 F1920.0 E2094.479
G1 X16.2 Y-20.53 Z0.3 F1920.0 E2095.187
G1 X17.84 Y-18.89 Z0.3 F1920.0 E2099.004
G1 X17.46 Y-18.67 Z0.3 F1920.0 E2099.718
G1 X15.83 Y-20.31 Z0.3 F1920.0 E2103.508
G1 X15.46 Y-20.08 Z0.3 F1920.0 E2104.216
G1 X17.08 Y-18.46 Z0.3 F1920.0 E2107.977
G1 X16.7 Y-18.25 Z0.3 F1920.0 E2108.691
G1 X15.1 Y-19.85 Z0.3 F1920.0 E2112.426
G1 X14.73 Y-19.63 Z0.3 F1920.0 E2113.133
G1 X16.33 Y-18.03 Z0.3 F1920.0 E2116.839
G1 X15.95 Y-17.82 Z0.3 F1920.0 E2117.553
G1 X14.37 Y-19.4 Z0.3 F1920.0 E2121.232
G1 X14.0 Y-19.18 Z0.3 F1920.0 E2121.938
G1 X15.57 Y-17.6 Z0.3 F1920.0 E2125.59
G1 X15.19 Y-17.39 Z0.3 F1920.0 E2126.301
G1 X13.63 Y-18.95 Z0.3 F1920.0 E2129.925
G1 X13.27 Y-18.72 Z0.3 F1920.0 E2130.631
G1 X14.82 Y-17.17 Z0.3 F1920.0 E2134.228
G1 X14.44 Y-16.96 Z0.3 F1920.0 E2134.941
G1 X12.9 Y-18.5 Z0.3 F1920.0 E2138.509
G1 X12.54 Y-18.27 Z0.3 F1920.0 E2139.215
G1 X14.06 Y-16.74 Z0.3 F1920.0 E2142.756
G1 X13.68 Y-16.53 Z0.3 F1920.0 E2143.469
G1 X12.17 Y-18.04 Z0.3 F1920.0 E2146.981
G1 X11.8 Y-17.82 Z0.3 F1920.0 E2147.687
G1 X13.3 Y-16.32 Z0.3 F1920.0 E2151.173
G1 X12.93 Y-16.1 Z0.3 F1920.0 E2151.886
G1 X11.44 Y-17.59 Z0.3 F1920.0 E2155.343
G1 X11.07 Y-17.36 Z0.3 F1920.0 E2156.05
G1 X12.55 Y-15.89 Z0.3 F1920.0 E2159.479
G1 X12.17 Y-15.67 Z0.3 F1920.0 E2160.193
G1 X10.71 Y-17.14 Z0.3 F1920.0 E2163.594
G1 X10.34 Y-16.91 Z0.3 F1920.0 E2164.3
G1 X11.79 Y-15.46 Z0.3 F1920.0 E2167.672
G1 X11.41 Y-15.24 Z0.3 F1920.0 E2168.386
G1 X9.97 Y-16.68 Z0.3 F1920.0 E2171.73
G1 X9.61 Y-16.46 Z0.3 F1920.0 E2172.438
G1 X11.04 Y-15.03 Z0.3 F1920.0 E2175.753
G1 X10.66 Y-14.81 Z0.3 F1920.0 E2176.467
G1 X9.24 Y-16.23 Z0.3 F1920.0 E2179.756
G1 X8.88 Y-16.0 Z0.3 F1920.0 E2180.463
G1 X10.28 Y-14.6 Z0.3 F1920.0 E2183.723
G1 X9.9 Y-14.39 Z0.3 F1920.0 E2184.437
G1 X8.51 Y-15.78 Z0.3 F1920.0 E2187.669
G1 X8.14 Y-15.55 Z0.3 F1920.0 E2188.375
G1 X9.52 Y-14.17 Z0.3 F1920.0 E2191.581
G1 X9.15 Y-13.96 Z0.3 F1920.0 E2192.294
G1 X7.78 Y-15.33 Z0.3 F1920.0 E2195.47
G1 X7.41 Y-15.1 Z0.3 F1920.0 E2196.176
G1 X8.77 Y-13.74 Z0.3 F1920.0 E2199.326
G1 X8.39 Y-13.53 Z0.3 F1920.0 E2200.039
G1 X7.05 Y-14.87 Z0.3 F1920.0 E2203.16
G1 X6.68 Y-14.65 Z0.3 F1920.0 E2203.866
G1 X8.01 Y-13.31 Z0.3 F1920.0 E2206.959
G1 X7.63 Y-13.1 Z0.3 F1920.0 E2207.673
G1 X6.31 Y-14.42 Z0.3 F1920.0 E2210.738
G1 X5.95 Y-14.19 Z0.3 F1920.0 E2211.444
G1 X7.26 Y-12.89 Z0.3 F1920.0 E2214.482
G1 X6.88 Y-12.67 Z0.3 F1920.0 E2215.196
G1 X5.58 Y-13.97 Z0.3 F1920.0 E2218.205
G1 X5.22 Y-13.74 Z0.3 F1920.0 E2218.911
G1 X6.5 Y-12.46 Z0.3 F1920.0 E2221.894
G1 X6.12 Y-12.24 Z0.3 F1920.0 E2222.608
G1 X4.85 Y-13.51 Z0.3 F1920.0 E2225.564
G1 X4.48 Y-13.29 Z0.3 F1920.0 E2226.271
G1 X5.75 Y-12.03 Z0.3 F1920.0 E2229.197
G1 X5.37 Y-11.81 Z0.3 F1920.0 E2229.911
G1 X4.12 Y-13.06 Z0.3 F1920.0 E2232.808
G1 X3.75 Y-12.83 Z0.3 F1920.0 E2233.516
G1 X4.99 Y-11.6 Z0.3 F1920.0 E2236.386
G1 X4.61 Y-11.38 Z0.3 F1920.0 E2237.099
G1 X3.39 Y-12.61 Z0.3 F1920.0 E2239.941
G1 X3.02 Y-12.38 Z0.3 F1920.0 E2240.648
G1 X4.23 Y-11.17 Z0.3 F1920.0 E2243.462
G1 X3.86 Y-10.96 Z0.3 F1920.0 E2244.175
G1 X2.66 Y-12.16 Z0.3 F1920.0 E2246.962
G1 X2.29 Y-11.93 Z0.3 F1920.0 E2247.669
G1 X3.48 Y-10.74 Z0.3 F1920.0 E2250.427
G1 X3.1 Y-10.53 Z0.3 F1920.0 E2251.14
G1 X1.92 Y-11.7 Z0.3 F1920.0 E2253.871
G1 X1.56 Y-11.48 Z0.3 F1920.0 E2254.577
G1 X2.72 Y-10.31 Z0.3 F1920.0 E2257.28
G1 X2.34 Y-10.1 Z0.3 F1920.0 E2257.994
G1 X1.19 Y-11.25 Z0.3 F1920.0 E2260.669
G1 X0.83 Y-11.02 Z0.3 F1920.0 E2261.375
G1 X1.97 Y-9.88 Z0.3 F1920.0 E2264.022
G1 X1.59 Y-9.67 Z0.3 F1920.0 E2264.736
G1 X0.46 Y-10.8 Z0.3 F1920.0 E2267.355
G1 X0.09 Y-10.57 Z0.3 F1920.0 E2268.062
G1 X1.21 Y-9.45 Z0.3 F1920.0 E2270.653
G1 X0.83 Y-9.24 Z0.3 F1920.0 E2271.367
G1 X-0.27 Y-10.34 Z0.3 F1920.0 E2273.931
G1 X-0.64 Y-10.12 Z0.3 F1920.0 E2274.637
G1 X0.45 Y-9.03 Z0.3 F1920.0 E2277.172
G1 X0.08 Y-8.81 Z0.3 F1920.0 E2277.886
G1 X-1.0 Y-9.89 Z0.3 F1920.0 E2280.392
G1 X-1.37 Y-9.66 Z0.3 F1920.0 E2281.098
G1 X-0.3 Y-8.6 Z0.3 F1920.0 E2283.578
G1 X-0.68 Y-8.38 Z0.3 F1920.0 E2284.291
G1 X-8.2 Y-15.9 Z0.3 F1920.0 E2301.757
G1 X-8.41 Y-15.52 Z0.3 F1920.0 E2302.475
G1 X-1.06 Y-8.17 Z0.3 F1920.0 E2319.548
G1 X-1.4 Y-7.92 Z0.3 F1920.0 E2320.244
G1 X-9.29 Y-15.8 Z0.3 F1920.0 E2338.551
G1 X-10.29 Y-16.21 Z0.3 F1920.0 E2340.332
;M103
G1 X0.11 Y-6.14 Z0.3 F3600.0
G1 X0.48 Y-5.59 Z0.3 F3600.0
G1 X0.88 Y-5.58 Z0.3 F3600.0
G1 X13.1 Y5.35 Z0.3 F3600.0
G1 X9.69 Y5.94 Z0.3 F3600.0
G1 X9.75 Y5.85 Z0.3 F3600.0
G1 X9.78 Y5.64 Z0.3 F3600.0
G1 X9.75 Y5.54 Z0.3 F3600.0
G1 X15.0 Y7.77 Z0.3 F3600.0
G1 X16.74 Y9.04 Z0.3 F2880.0
;M101
G1 X17.1 Y9.4 Z0.3 F1920.0 E2341.154
G1 X16.96 Y9.85 Z0.3 F1920.0 E2341.94
G1 X15.88 Y8.77 Z0.3 F1920.0 E2344.45
G1 X15.02 Y8.5 Z0.3 F1920.0 E2345.929
G1 X16.38 Y9.86 Z0.3 F1920.0 E2349.076
G1 X15.57 Y9.64 Z0.3 F1920.0 E2350.45
G1 X14.16 Y8.24 Z0.3 F1920.0 E2353.719
G1 X13.3 Y7.97 Z0.3 F1920.0 E2355.198
G1 X14.76 Y9.43 Z0.3 F1920.0 E2358.589
G1 X13.95 Y9.21 Z0.3 F1920.0 E2359.962
G1 X12.44 Y7.7 Z0.3 F1920.0 E2363.476
G1 X11.58 Y7.43 Z0.3 F1920.0 E2364.955
G1 X13.14 Y9.0 Z0.3 F1920.0 E2368.588
G1 X12.34 Y8.78 Z0.3 F1920.0 E2369.961
G1 X10.72 Y7.16 Z0.3 F1920.0 E2373.718
G1 X9.86 Y6.9 Z0.3 F1920.0 E2375.197
G1 X11.53 Y8.57 Z0.3 F1920.0 E2379.075
G1 X10.72 Y8.35 Z0.3 F1920.0 E2380.448
G1 X-14.89 Y-17.26 Z0.3 F1920.0 E2439.919
G1 X-14.18 Y-17.14 Z0.3 F1920.0 E2441.106
G1 X8.56 Y5.6 Z0.3 F1920.0 E2493.917
G1 X8.65 Y5.09 Z0.3 F1920.0 E2494.764
G1 X-13.47 Y-17.02 Z0.3 F1920.0 E2546.112
;M103
G1 X-19.97 Y-18.07 Z0.3 F3600.0
G1 X-20.18 Y-18.48 Z0.3 F3600.0
G1 X-22.72 Y-19.37 Z0.3 F3600.0
G1 X-22.35 Y-17.35 Z0.3 F3600.0
G1 X-23.4 Y-17.0 Z0.3 F3600.0
G1 X-28.25 Y-20.55 Z0.3 F2880.0
;M101
G1 X-27.34 Y-19.05 Z0.3 F1920.0 E2548.985
G1 X-1.29 Y7.0 Z0.3 F1920.0 E2609.471
G1 X-1.09 Y6.61 Z0.3 F1920.0 E2610.191
G1 X-23.74 Y-16.04 Z0.3 F1920.0 E2662.786
G1 X-23.29 Y-16.18 Z0.3 F1920.0 E2663.56
G1 X-0.88 Y6.23 Z0.3 F1920.0 E2715.589
G1 X-0.68 Y5.84 Z0.3 F1920.0 E2716.308
G1 X-22.84 Y-16.33 Z0.3 F1920.0 E2767.772
G1 X-22.39 Y-16.47 Z0.3 F1920.0 E2768.546
G1 X-0.47 Y5.45 Z0.3 F1920.0 E2819.444
G1 X0.22 Y5.55 Z0.3 F1920.0 E2820.584
G1 X-21.94 Y-16.61 Z0.3 F1920.0 E2872.037
G1 X-21.5 Y-16.76 Z0.3 F1920.0 E2872.809
G1 X1.02 Y5.76 Z0.3 F1920.0 E2925.097
G1 X1.83 Y5.98 Z0.3 F1920.0 E2926.471
G1 X-21.5 Y-17.35 Z0.3 F1920.0 E2980.635
;M103
G1 X-22.33 Y-17.82 Z0.3 F3600.0
G1 X-22.35 Y-17.35 Z0.3 F3600.0
G1 X-23.4 Y-17.0 Z0.3 F3600.0
G1 X-27.01 Y-19.31 Z0.3 F2880.0
;M101
G1 X-23.86 Y-16.16 Z0.3 F1920.0 E2987.942
;M103
G1 X-26.44 Y-17.55 Z0.3 F2880.0
;M101
G1 X-25.53 Y-16.05 Z0.3 F1920.0 E2990.817
G1 X-1.7 Y7.78 Z0.3 F1920.0 E3046.144
G1 X-1.5 Y7.39 Z0.3 F1920.0 E3046.865
G1 X-25.2 Y-16.31 Z0.3 F1920.0 E3101.897
;M103
G1 X-24.58 Y-17.47 Z0.3 F2880.0
;M101
G1 X-29.15 Y-22.05 Z0.3 F1920.0 E3112.521
G1 X-30.06 Y-23.54 Z0.3 F1920.0 E3115.395
;M103
G1 X-28.82 Y-22.31 Z0.3 F2880.0
;M101
G1 X-25.29 Y-18.78 Z0.3 F1920.0 E3123.587
;M103
G1 X-26.01 Y-20.08 Z0.3 F2880.0
;M101
G1 X-30.97 Y-25.04 Z0.3 F1920.0 E3135.097
G1 X-31.87 Y-26.54 Z0.3 F1920.0 E3137.971
;M103
G1 X-30.63 Y-25.3 Z0.3 F2880.0
;M101
G1 X-26.72 Y-21.39 Z0.3 F1920.0 E3147.05
;M103
G1 X-27.44 Y-22.7 Z0.3 F2880.0
;M101
G1 X-32.78 Y-28.04 Z0.3 F1920.0 E3159.445
G1 X-33.68 Y-29.54 Z0.3 F1920.0 E3162.319
;M103
G1 X-32.44 Y-28.3 Z0.3 F2880.0
;M101
G1 X-28.15 Y-24.01 Z0.3 F1920.0 E3172.284
;M103
G1 X-28.87 Y-25.31 Z0.3 F2880.0
;M101
G1 X-34.59 Y-31.03 Z0.3 F1920.0 E3185.567
G1 X-35.49 Y-32.53 Z0.3 F1920.0 E3188.441
;M103
G1 X-34.26 Y-31.29 Z0.3 F2880.0
;M101
G1 X-29.58 Y-26.62 Z0.3 F1920.0 E3199.294
;M103
G1 X-30.3 Y-27.93 Z0.3 F2880.0
;M101
G1 X-36.4 Y-34.03 Z0.3 F1920.0 E3213.462
G1 X-37.31 Y-35.53 Z0.3 F1920.0 E3216.337
;M103
G1 X-36.07 Y-34.29 Z0.3 F2880.0
;M101
G1 X-31.01 Y-29.24 Z0.3 F1920.0 E3228.074
;M103
G1 X-31.73 Y-30.54 Z0.3 F2880.0
;M101
G1 X-38.21 Y-37.03 Z0.3 F1920.0 E3243.13
G1 X-39.12 Y-38.52 Z0.3 F1920.0 E3246.004
;M103
G1 X-37.88 Y-37.29 Z0.3 F2880.0
;M101
G1 X-32.44 Y-31.85 Z0.3 F1920.0 E3258.629
;M103
G1 X-33.16 Y-33.16 Z0.3 F2880.0
;M101
G1 X-40.02 Y-40.02 Z0.3 F1920.0 E3274.571
G1 X-40.93 Y-41.52 Z0.3 F1920.0 E3277.445
;M103
G1 X-39.69 Y-40.28 Z0.3 F2880.0
;M101
G1 X-33.87 Y-34.46 Z0.3 F1920.0 E3290.955
;M103
G1 X-34.59 Y-35.77 Z0.3 F2880.0
;M101
G1 X-41.83 Y-43.02 Z0.3 F1920.0 E3307.783
G1 X-42.74 Y-44.52 Z0.3 F1920.0 E3310.657
;M103
G1 X-41.5 Y-43.28 Z0.3 F2880.0
;M101
G1 X-35.3 Y-37.08 Z0.3 F1920.0 E3325.053
;M103
G1 X-36.02 Y-38.39 Z0.3 F2880.0
;M101
G1 X-43.65 Y-46.02 Z0.3 F1920.0 E3342.767
G1 X-43.79 Y-46.75 Z0.3 F1920.0 E3343.998
G1 X-36.73 Y-39.69 Z0.3 F1920.0 E3360.387
;M103
G1 X-37.45 Y-41.0 Z0.3 F2880.0
;M101
G1 X-43.39 Y-46.94 Z0.3 F1920.0 E3374.18
G1 X-42.98 Y-47.13 Z0.3 F1920.0 E3374.912
G1 X-38.16 Y-42.31 Z0.3 F1920.0 E3386.111
;M103
G1 X-38.88 Y-43.62 Z0.3 F2880.0
;M101
G1 X-42.58 Y-47.32 Z0.3 F1920.0 E3394.714
G1 X-42.18 Y-47.51 Z0.3 F1920.0 E3395.444
G1 X-39.59 Y-44.92 Z0.3 F1920.0 E3401.452
;M103
G1 X-40.31 Y-46.23 Z0.3 F2880.0
;M101
G1 X-41.78 Y-47.7 Z0.3 F1920.0 E3404.865
G1 X-41.37 Y-47.89 Z0.3 F1920.0 E3405.596
G1 X-41.02 Y-47.54 Z0.3 F1920.0 E3406.413
;M103
G1 X-23.4 Y-17.0 Z0.3 F3600.0
G1 X-22.35 Y-17.35 Z0.3 F3600.0
G1 X-26.95 Y-35.47 Z0.3 F3600.0
G1 X-25.95 Y-34.84 Z0.3 F2880.0
;M101
G1 X-24.9 Y-33.79 Z0.3 F1920.0 E3408.852
G1 X-25.11 Y-34.59 Z0.3 F1920.0 E3410.214
G1 X-25.67 Y-35.15 Z0.3 F1920.0 E3411.516
G1 X-25.3 Y-35.37 Z0.3 F1920.0 E3412.227
G1 X-25.26 Y-35.33 Z0.3 F1920.0 E3412.324
;M103
G1 X-25.75 Y-34.04 Z0.3 F2880.0
;M101
G1 X-24.69 Y-32.98 Z0.3 F1920.0 E3414.779
G1 X-24.48 Y-32.18 Z0.3 F1920.0 E3416.14
G1 X-25.55 Y-33.25 Z0.3 F1920.0 E3418.613
G1 X-25.34 Y-32.45 Z0.3 F1920.0 E3419.96
G1 X-24.27 Y-31.38 Z0.3 F1920.0 E3422.449
G1 X-24.06 Y-30.58 Z0.3 F1920.0 E3423.81
G1 X-25.14 Y-31.66 Z0.3 F1920.0 E3426.316
G1 X-24.94 Y-30.86 Z0.3 F1920.0 E3427.663
G1 X-23.85 Y-29.78 Z0.3 F1920.0 E3430.184
G1 X-23.64 Y-28.97 Z0.3 F1920.0 E3431.546
G1 X-24.74 Y-30.07 Z0.3 F1920.0 E3434.085
G1 X-24.53 Y-29.27 Z0.3 F1920.0 E3435.432
G1 X-23.43 Y-28.17 Z0.3 F1920.0 E3437.986
G1 X-23.22 Y-27.37 Z0.3 F1920.0 E3439.347
G1 X-24.33 Y-28.48 Z0.3 F1920.0 E3441.919
G1 X-24.13 Y-27.68 Z0.3 F1920.0 E3443.264
G1 X-23.01 Y-26.57 Z0.3 F1920.0 E3445.853
G1 X-22.8 Y-25.77 Z0.3 F1920.0 E3447.214
G1 X-23.93 Y-26.89 Z0.3 F1920.0 E3449.819
G1 X-23.72 Y-26.09 Z0.3 F1920.0 E3451.166
G1 X-22.59 Y-24.96 Z0.3 F1920.0 E3453.789
G1 X-22.38 Y-24.16 Z0.3 F1920.0 E3455.15
G1 X-23.52 Y-25.3 Z0.3 F1920.0 E3457.79
G1 X-23.32 Y-24.5 Z0.3 F1920.0 E3459.138
G1 X-22.18 Y-23.36 Z0.3 F1920.0 E3461.793
G1 X-21.97 Y-22.56 Z0.3 F1920.0 E3463.154
G1 X-23.12 Y-23.71 Z0.3 F1920.0 E3465.826
G1 X-22.91 Y-22.91 Z0.3 F1920.0 E3467.174
G1 X-21.76 Y-21.76 Z0.3 F1920.0 E3469.862
G1 X-21.55 Y-20.95 Z0.3 F1920.0 E3471.223
G1 X-22.71 Y-22.12 Z0.3 F1920.0 E3473.928
G1 X-22.51 Y-21.32 Z0.3 F1920.0 E3475.274
G1 X-21.34 Y-20.15 Z0.3 F1920.0 E3477.996
G1 X-21.13 Y-19.35 Z0.3 F1920.0 E3479.358
G1 X-22.31 Y-20.53 Z0.3 F1920.0 E3482.097
G1 X-22.1 Y-19.73 Z0.3 F1920.0 E3483.445
G1 X-20.92 Y-18.55 Z0.3 F1920.0 E3486.2
G1 X-20.71 Y-17.75 Z0.3 F1920.0 E3487.561
G1 X-21.9 Y-18.94 Z0.3 F1920.0 E3490.333
G1 X-21.7 Y-18.14 Z0.3 F1920.0 E3491.68
G1 X2.64 Y6.19 Z0.3 F1920.0 E3548.19
G1 X3.45 Y6.41 Z0.3 F1920.0 E3549.563
G1 X-20.23 Y-17.27 Z0.3 F1920.0 E3604.547
G1 X-19.64 Y-17.27 Z0.3 F1920.0 E3605.514
G1 X4.26 Y6.63 Z0.3 F1920.0 E3661.007
G1 X5.06 Y6.84 Z0.3 F1920.0 E3662.38
G1 X-19.06 Y-17.28 Z0.3 F1920.0 E3718.381
G1 X-18.47 Y-17.28 Z0.3 F1920.0 E3719.348
G1 X5.87 Y7.06 Z0.3 F1920.0 E3775.857
G1 X6.68 Y7.27 Z0.3 F1920.0 E3777.231
G1 X-17.88 Y-17.29 Z0.3 F1920.0 E3834.25
G1 X-17.29 Y-17.29 Z0.3 F1920.0 E3835.217
G1 X7.49 Y7.49 Z0.3 F1920.0 E3892.744
G1 X8.3 Y7.7 Z0.3 F1920.0 E3894.117
G1 X-17.04 Y-17.64 Z0.3 F1920.0 E3952.954
G1 X-17.05 Y-18.24 Z0.3 F1920.0 E3953.941
G1 X9.1 Y7.92 Z0.3 F1920.0 E4014.677
G1 X9.91 Y8.13 Z0.3 F1920.0 E4016.049
G1 X-17.06 Y-18.84 Z0.3 F1920.0 E4078.681
G1 X-17.07 Y-19.44 Z0.3 F1920.0 E4079.669
G1 X-15.85 Y-18.22 Z0.3 F1920.0 E4082.502
G1 X-15.84 Y-18.8 Z0.3 F1920.0 E4083.46
G1 X-17.08 Y-20.04 Z0.3 F1920.0 E4086.334
G1 X-17.09 Y-20.64 Z0.3 F1920.0 E4087.321
G1 X-15.83 Y-19.39 Z0.3 F1920.0 E4090.235
G1 X-15.83 Y-19.97 Z0.3 F1920.0 E4091.194
G1 X-17.1 Y-21.25 Z0.3 F1920.0 E4094.15
G1 X-17.11 Y-21.85 Z0.3 F1920.0 E4095.137
G1 X-15.82 Y-20.56 Z0.3 F1920.0 E4098.134
G1 X-15.81 Y-21.14 Z0.3 F1920.0 E4099.093
G1 X-17.12 Y-22.45 Z0.3 F1920.0 E4102.132
G1 X-17.13 Y-23.05 Z0.3 F1920.0 E4103.119
G1 X-15.8 Y-21.72 Z0.3 F1920.0 E4106.197
G1 X-15.79 Y-22.31 Z0.3 F1920.0 E4107.155
G1 X-17.13 Y-23.65 Z0.3 F1920.0 E4110.275
G1 X-17.14 Y-24.25 Z0.3 F1920.0 E4111.264
G1 X-15.78 Y-22.89 Z0.3 F1920.0 E4114.427
G1 X-15.77 Y-23.47 Z0.3 F1920.0 E4115.385
G1 X-17.15 Y-24.85 Z0.3 F1920.0 E4118.587
G1 X-17.16 Y-25.46 Z0.3 F1920.0 E4119.576
G1 X-15.76 Y-24.06 Z0.3 F1920.0 E4122.821
G1 X-15.76 Y-24.64 Z0.3 F1920.0 E4123.78
G1 X-17.17 Y-26.06 Z0.3 F1920.0 E4127.065
G1 X-17.18 Y-26.66 Z0.3 F1920.0 E4128.052
G1 X-15.75 Y-25.23 Z0.3 F1920.0 E4131.377
G1 X-15.74 Y-25.81 Z0.3 F1920.0 E4132.336
G1 X-17.19 Y-27.26 Z0.3 F1920.0 E4135.703
G1 X-17.2 Y-27.86 Z0.3 F1920.0 E4136.69
G1 X-15.73 Y-26.39 Z0.3 F1920.0 E4140.099
G1 X-15.72 Y-26.98 Z0.3 F1920.0 E4141.058
G1 X-17.21 Y-28.46 Z0.3 F1920.0 E4144.507
G1 X-17.22 Y-29.06 Z0.3 F1920.0 E4145.494
G1 X-15.71 Y-27.56 Z0.3 F1920.0 E4148.984
G1 X-15.7 Y-28.14 Z0.3 F1920.0 E4149.941
G1 X-17.22 Y-29.66 Z0.3 F1920.0 E4153.473
G1 X-17.23 Y-30.27 Z0.3 F1920.0 E4154.461
G1 X-15.69 Y-28.73 Z0.3 F1920.0 E4158.035
G1 X-15.69 Y-29.31 Z0.3 F1920.0 E4158.994
G1 X-17.24 Y-30.87 Z0.3 F1920.0 E4162.607
G1 X-17.25 Y-31.47 Z0.3 F1920.0 E4163.595
G1 X-15.68 Y-29.89 Z0.3 F1920.0 E4167.251
G1 X-15.67 Y-30.48 Z0.3 F1920.0 E4168.21
G1 X-17.26 Y-32.07 Z0.3 F1920.0 E4171.907
G1 X-17.27 Y-32.67 Z0.3 F1920.0 E4172.894
G1 X-15.66 Y-31.06 Z0.3 F1920.0 E4176.63
G1 X-15.65 Y-31.65 Z0.3 F1920.0 E4177.587
G1 X-17.28 Y-33.27 Z0.3 F1920.0 E4181.366
G1 X-17.29 Y-33.87 Z0.3 F1920.0 E4182.353
G1 X-15.64 Y-32.23 Z0.3 F1920.0 E4186.172
G1 X-15.63 Y-32.81 Z0.3 F1920.0 E4187.131
G1 X-17.3 Y-34.48 Z0.3 F1920.0 E4190.992
G1 X-17.31 Y-35.08 Z0.3 F1920.0 E4191.978
G1 X-15.63 Y-33.4 Z0.3 F1920.0 E4195.881
G1 X-15.62 Y-33.98 Z0.3 F1920.0 E4196.84
G1 X-17.31 Y-35.68 Z0.3 F1920.0 E4200.782
G1 X-17.32 Y-36.28 Z0.3 F1920.0 E4201.771
G1 X-15.61 Y-34.56 Z0.3 F1920.0 E4205.755
G1 X-15.6 Y-35.15 Z0.3 F1920.0 E4206.713
G1 X-17.33 Y-36.88 Z0.3 F1920.0 E4210.738
G1 X-17.34 Y-37.48 Z0.3 F1920.0 E4211.726
G1 X-15.59 Y-35.73 Z0.3 F1920.0 E4215.793
G1 X-15.58 Y-36.32 Z0.3 F1920.0 E4216.752
G1 X-17.35 Y-38.08 Z0.3 F1920.0 E4220.86
G1 X-17.36 Y-38.69 Z0.3 F1920.0 E4221.846
G1 X-15.57 Y-36.9 Z0.3 F1920.0 E4225.995
G1 X-15.56 Y-37.48 Z0.3 F1920.0 E4226.954
G1 X-17.37 Y-39.29 Z0.3 F1920.0 E4231.144
G1 X-17.38 Y-39.89 Z0.3 F1920.0 E4232.13
G1 X-15.56 Y-38.07 Z0.3 F1920.0 E4236.361
G1 X-15.55 Y-38.65 Z0.3 F1920.0 E4237.318
G1 X-17.39 Y-40.49 Z0.3 F1920.0 E4241.592
G1 X-17.4 Y-41.09 Z0.3 F1920.0 E4242.581
G1 X-15.54 Y-39.23 Z0.3 F1920.0 E4246.895
G1 X-15.53 Y-39.82 Z0.3 F1920.0 E4247.854
G1 X-17.41 Y-41.69 Z0.3 F1920.0 E4252.209
G1 X-17.41 Y-42.29 Z0.3 F1920.0 E4253.197
G1 X-15.52 Y-40.4 Z0.3 F1920.0 E4257.595
G1 X-15.51 Y-40.98 Z0.3 F1920.0 E4258.554
G1 X-17.42 Y-42.9 Z0.3 F1920.0 E4262.991
G1 X-17.43 Y-43.5 Z0.3 F1920.0 E4263.978
G1 X-15.5 Y-41.57 Z0.3 F1920.0 E4268.456
G1 X-15.49 Y-42.15 Z0.3 F1920.0 E4269.415
G1 X-17.44 Y-44.1 Z0.3 F1920.0 E4273.934
G1 X-17.45 Y-44.7 Z0.3 F1920.0 E4274.921
G1 X-15.49 Y-42.74 Z0.3 F1920.0 E4279.482
G1 X-15.48 Y-43.32 Z0.3 F1920.0 E4280.441
G1 X-17.46 Y-45.3 Z0.3 F1920.0 E4285.043
G1 X-17.47 Y-45.9 Z0.3 F1920.0 E4286.03
G1 X-15.47 Y-43.9 Z0.3 F1920.0 E4290.672
G1 X-15.46 Y-44.49 Z0.3 F1920.0 E4291.63
G1 X-17.48 Y-46.5 Z0.3 F1920.0 E4296.314
G1 X-17.49 Y-47.11 Z0.3 F1920.0 E4297.303
G1 X-15.45 Y-45.07 Z0.3 F1920.0 E4302.028
G1 X-15.44 Y-45.65 Z0.3 F1920.0 E4302.987
G1 X-17.5 Y-47.71 Z0.3 F1920.0 E4307.753
G1 X-17.5 Y-48.31 Z0.3 F1920.0 E4308.741
G1 X-15.43 Y-46.24 Z0.3 F1920.0 E4313.55
G1 X-15.43 Y-46.82 Z0.3 F1920.0 E4314.509
G1 X-17.51 Y-48.91 Z0.3 F1920.0 E4319.357
G1 X-17.52 Y-49.51 Z0.3 F1920.0 E4320.344
G1 X-15.42 Y-47.41 Z0.3 F1920.0 E4325.233
G1 X-15.41 Y-47.99 Z0.3 F1920.0 E4326.19
G1 X-17.53 Y-50.11 Z0.3 F1920.0 E4331.122
G1 X-17.54 Y-50.71 Z0.3 F1920.0 E4332.109
G1 X-15.4 Y-48.57 Z0.3 F1920.0 E4337.082
G1 X-15.39 Y-49.16 Z0.3 F1920.0 E4338.041
G1 X-17.55 Y-51.32 Z0.3 F1920.0 E4343.054
G1 X-17.56 Y-51.92 Z0.3 F1920.0 E4344.041
G1 X-15.38 Y-49.74 Z0.3 F1920.0 E4349.095
G1 X-15.37 Y-50.32 Z0.3 F1920.0 E4350.054
G1 X-17.57 Y-52.52 Z0.3 F1920.0 E4355.15
G1 X-17.58 Y-53.12 Z0.3 F1920.0 E4356.139
G1 X-15.36 Y-50.91 Z0.3 F1920.0 E4361.275
G1 X-15.36 Y-51.49 Z0.3 F1920.0 E4362.232
G1 X-17.59 Y-53.72 Z0.3 F1920.0 E4367.41
G1 X-17.59 Y-54.32 Z0.3 F1920.0 E4368.399
G1 X-15.35 Y-52.07 Z0.3 F1920.0 E4373.618
G1 X-15.34 Y-52.66 Z0.3 F1920.0 E4374.577
G1 X-17.45 Y-54.77 Z0.3 F1920.0 E4379.475
G1 X-16.84 Y-54.75 Z0.3 F1920.0 E4380.476
G1 X-15.33 Y-53.24 Z0.3 F1920.0 E4383.981
G1 X-15.32 Y-53.83 Z0.3 F1920.0 E4384.94
G1 X-16.23 Y-54.73 Z0.3 F1920.0 E4387.048
G1 X-15.62 Y-54.72 Z0.3 F1920.0 E4388.048
G1 X-15.31 Y-54.41 Z0.3 F1920.0 E4388.762
;M103
G1 X-15.04 Y-18.11 Z0.3 F3600.0
G1 X-12.91 Y-17.77 Z0.3 F3600.0
G1 X-9.24 Y-32.12 Z0.3 F3600.0
G1 X-8.2 Y-26.08 Z0.3 F3600.0
G1 X-10.32 Y-17.11 Z0.3 F3600.0
G1 X-8.82 Y-16.5 Z0.3 F3600.0
G1 X-6.34 Y-20.79 Z0.3 F3600.0
G1 X-5.68 Y-16.56 Z0.3 F3600.0
G1 X-6.36 Y-15.15 Z0.3 F3600.0
G1 X-4.47 Y-12.77 Z0.3 F2880.0
;M101
G1 X-3.92 Y-12.21 Z0.3 F1920.0 E4390.052
G1 X-3.63 Y-12.51 Z0.3 F1920.0 E4390.741
G1 X-4.18 Y-13.07 Z0.3 F1920.0 E4392.032
G1 X-3.89 Y-13.37 Z0.3 F1920.0 E4392.719
G1 X-3.34 Y-12.82 Z0.3 F1920.0 E4394.009
G1 X-3.05 Y-13.12 Z0.3 F1920.0 E4394.695
G1 X-3.6 Y-13.67 Z0.3 F1920.0 E4395.986
G1 X-3.31 Y-13.98 Z0.3 F1920.0 E4396.675
G1 X-2.76 Y-13.42 Z0.3 F1920.0 E4397.966
G1 X-2.47 Y-13.72 Z0.3 F1920.0 E4398.653
G1 X-3.02 Y-14.28 Z0.3 F1920.0 E4399.944
G1 X-2.73 Y-14.58 Z0.3 F1920.0 E4400.633
G1 X-2.17 Y-14.02 Z0.3 F1920.0 E4401.924
G1 X-1.89 Y-14.33 Z0.3 F1920.0 E4402.611
G1 X-2.44 Y-14.88 Z0.3 F1920.0 E4403.902
G1 X-2.15 Y-15.18 Z0.3 F1920.0 E4404.591
G1 X-1.59 Y-14.63 Z0.3 F1920.0 E4405.882
G1 X-1.3 Y-14.93 Z0.3 F1920.0 E4406.568
G1 X-1.86 Y-15.48 Z0.3 F1920.0 E4407.859
G1 X-1.57 Y-15.79 Z0.3 F1920.0 E4408.548
G1 X-1.01 Y-15.23 Z0.3 F1920.0 E4409.839
G1 X-0.72 Y-15.53 Z0.3 F1920.0 E4410.527
G1 X-1.28 Y-16.09 Z0.3 F1920.0 E4411.818
G1 X-0.99 Y-16.39 Z0.3 F1920.0 E4412.506
G1 X-0.43 Y-15.83 Z0.3 F1920.0 E4413.797
G1 X-0.14 Y-16.14 Z0.3 F1920.0 E4414.485
G1 X-0.7 Y-16.69 Z0.3 F1920.0 E4415.776
G1 X-0.41 Y-16.99 Z0.3 F1920.0 E4416.464
G1 X0.15 Y-16.44 Z0.3 F1920.0 E4417.756
G1 X0.44 Y-16.74 Z0.3 F1920.0 E4418.445
G1 X-0.12 Y-17.3 Z0.3 F1920.0 E4419.737
G1 X0.17 Y-17.6 Z0.3 F1920.0 E4420.423
G1 X0.73 Y-17.04 Z0.3 F1920.0 E4421.714
G1 X1.02 Y-17.34 Z0.3 F1920.0 E4422.403
G1 X0.47 Y-17.9 Z0.3 F1920.0 E4423.694
G1 X0.76 Y-18.2 Z0.3 F1920.0 E4424.381
G1 X1.31 Y-17.65 Z0.3 F1920.0 E4425.673
G1 X1.6 Y-17.95 Z0.3 F1920.0 E4426.361
G1 X1.05 Y-18.5 Z0.3 F1920.0 E4427.652
G1 X1.34 Y-18.81 Z0.3 F1920.0 E4428.339
G1 X1.89 Y-18.25 Z0.3 F1920.0 E4429.633
G1 X2.18 Y-18.55 Z0.3 F1920.0 E4430.32
G1 X1.63 Y-19.11 Z0.3 F1920.0 E4431.612
G1 X1.92 Y-19.41 Z0.3 F1920.0 E4432.298
G1 X2.47 Y-18.85 Z0.3 F1920.0 E4433.591
G1 X2.76 Y-19.15 Z0.3 F1920.0 E4434.278
G1 X2.21 Y-19.71 Z0.3 F1920.0 E4435.569
G1 X2.5 Y-20.01 Z0.3 F1920.0 E4436.256
G1 X3.06 Y-19.46 Z0.3 F1920.0 E4437.549
G1 X3.35 Y-19.76 Z0.3 F1920.0 E4438.236
G1 X2.79 Y-20.31 Z0.3 F1920.0 E4439.527
G1 X3.08 Y-20.62 Z0.3 F1920.0 E4440.215
G1 X3.64 Y-20.06 Z0.3 F1920.0 E4441.508
G1 X3.93 Y-20.36 Z0.3 F1920.0 E4442.196
G1 X3.37 Y-20.92 Z0.3 F1920.0 E4443.49
G1 X3.66 Y-21.22 Z0.3 F1920.0 E4444.178
G1 X4.22 Y-20.66 Z0.3 F1920.0 E4445.471
G1 X4.51 Y-20.97 Z0.3 F1920.0 E4446.159
G1 X3.95 Y-21.52 Z0.3 F1920.0 E4447.451
G1 X4.24 Y-21.82 Z0.3 F1920.0 E4448.14
G1 X4.8 Y-21.27 Z0.3 F1920.0 E4449.431
G1 X5.09 Y-21.57 Z0.3 F1920.0 E4450.119
G1 X4.53 Y-22.13 Z0.3 F1920.0 E4451.412
G1 X4.82 Y-22.43 Z0.3 F1920.0 E4452.1
G1 X5.38 Y-21.87 Z0.3 F1920.0 E4453.392
G1 X5.67 Y-22.17 Z0.3 F1920.0 E4454.081
G1 X5.11 Y-22.73 Z0.3 F1920.0 E4455.374
G1 X5.4 Y-23.03 Z0.3 F1920.0 E4456.063
G1 X5.96 Y-22.47 Z0.3 F1920.0 E4457.355
G1 X6.25 Y-22.78 Z0.3 F1920.0 E4458.044
G1 X5.69 Y-23.33 Z0.3 F1920.0 E4459.337
G1 X5.99 Y-23.63 Z0.3 F1920.0 E4460.024
G1 X6.54 Y-23.08 Z0.3 F1920.0 E4461.317
G1 X6.83 Y-23.38 Z0.3 F1920.0 E4462.003
G1 X6.28 Y-23.94 Z0.3 F1920.0 E4463.296
G1 X6.57 Y-24.24 Z0.3 F1920.0 E4463.985
G1 X7.12 Y-23.68 Z0.3 F1920.0 E4465.278
G1 X7.41 Y-23.98 Z0.3 F1920.0 E4465.965
G1 X6.86 Y-24.54 Z0.3 F1920.0 E4467.259
G1 X7.15 Y-24.84 Z0.3 F1920.0 E4467.947
G1 X7.7 Y-24.29 Z0.3 F1920.0 E4469.241
G1 X7.99 Y-24.59 Z0.3 F1920.0 E4469.928
G1 X7.44 Y-25.14 Z0.3 F1920.0 E4471.221
G1 X7.73 Y-25.45 Z0.3 F1920.0 E4471.91
G1 X8.29 Y-24.89 Z0.3 F1920.0 E4473.203
G1 X8.58 Y-25.19 Z0.3 F1920.0 E4473.891
G1 X8.02 Y-25.75 Z0.3 F1920.0 E4475.185
G1 X8.31 Y-26.05 Z0.3 F1920.0 E4475.874
G1 X8.87 Y-25.49 Z0.3 F1920.0 E4477.167
;M103
G1 X9.64 Y-25.36 Z0.3 F3600.0
G1 X-2.87 Y-12.12 Z0.3 F3600.0
G1 X-1.57 Y-10.5 Z0.3 F3600.0
G1 X17.69 Y-22.27 Z0.3 F3600.0
G1 X22.73 Y-20.94 Z0.3 F3600.0
G1 X-0.38 Y-7.61 Z0.3 F3600.0
G1 X0.48 Y-5.59 Z0.3 F3600.0
G1 X17.98 Y-10.67 Z0.3 F3600.0
G1 X18.81 Y-7.96 Z0.3 F3600.0
G1 X9.68 Y-5.26 Z0.3 F3600.0
G1 X9.73 Y-5.38 Z0.3 F3600.0
G1 X9.71 Y-5.6 Z0.3 F3600.0
G1 X9.63 Y-5.7 Z0.3 F3600.0
G1 X65.62 Y-5.74 Z0.3 F3600.0
G1 X68.36 Y-5.1 Z0.3 F2880.0
;M101
G1 X68.41 Y-5.04 Z0.3 F1920.0 E4477.289
G1 X68.41 Y-4.45 Z0.3 F1920.0 E4478.258
G1 X67.78 Y-5.09 Z0.3 F1920.0 E4479.735
G1 X67.19 Y-5.08 Z0.3 F1920.0 E4480.697
G1 X68.41 Y-3.86 Z0.3 F1920.0 E4483.53
G1 X68.41 Y-3.27 Z0.3 F1920.0 E4484.498
G1 X66.6 Y-5.08 Z0.3 F1920.0 E4488.685
G1 X66.02 Y-5.07 Z0.3 F1920.0 E4489.645
G1 X68.4 Y-2.68 Z0.3 F1920.0 E4495.186
G1 X68.4 Y-2.09 Z0.3 F1920.0 E4496.154
G1 X65.43 Y-5.06 Z0.3 F1920.0 E4503.051
G1 X64.85 Y-5.06 Z0.3 F1920.0 E4504.013
G1 X68.4 Y-1.5 Z0.3 F1920.0 E4512.263
G1 X68.4 Y-0.91 Z0.3 F1920.0 E4513.231
G1 X64.26 Y-5.05 Z0.3 F1920.0 E4522.837
G1 X63.68 Y-5.04 Z0.3 F1920.0 E4523.798
G1 X68.4 Y-0.32 Z0.3 F1920.0 E4534.758
G1 X68.39 Y0.27 Z0.3 F1920.0 E4535.726
G1 X63.09 Y-5.04 Z0.3 F1920.0 E4548.04
G1 X62.5 Y-5.03 Z0.3 F1920.0 E4549.002
G1 X68.39 Y0.86 Z0.3 F1920.0 E4562.671
G1 X68.39 Y1.45 Z0.3 F1920.0 E4563.64
G1 X61.92 Y-5.02 Z0.3 F1920.0 E4578.664
G1 X61.33 Y-5.02 Z0.3 F1920.0 E4579.626
G1 X68.39 Y2.04 Z0.3 F1920.0 E4596.007
G1 X68.38 Y2.63 Z0.3 F1920.0 E4596.977
G1 X60.75 Y-5.01 Z0.3 F1920.0 E4614.711
G1 X60.16 Y-5.0 Z0.3 F1920.0 E4615.673
G1 X68.38 Y3.22 Z0.3 F1920.0 E4634.762
G1 X68.38 Y3.81 Z0.3 F1920.0 E4635.731
G1 X59.57 Y-5.0 Z0.3 F1920.0 E4656.176
G1 X58.99 Y-4.99 Z0.3 F1920.0 E4657.138
G1 X68.34 Y4.36 Z0.3 F1920.0 E4678.853
G1 X67.75 Y4.37 Z0.3 F1920.0 E4679.82
G1 X58.4 Y-4.98 Z0.3 F1920.0 E4701.528
G1 X57.82 Y-4.98 Z0.3 F1920.0 E4702.488
G1 X67.16 Y4.37 Z0.3 F1920.0 E4724.187
G1 X66.57 Y4.37 Z0.3 F1920.0 E4725.154
G1 X57.23 Y-4.97 Z0.3 F1920.0 E4746.845
G1 X56.65 Y-4.96 Z0.3 F1920.0 E4747.807
G1 X65.98 Y4.38 Z0.3 F1920.0 E4769.49
G1 X65.39 Y4.38 Z0.3 F1920.0 E4770.457
G1 X56.06 Y-4.96 Z0.3 F1920.0 E4792.131
G1 X55.47 Y-4.95 Z0.3 F1920.0 E4793.092
G1 X64.81 Y4.38 Z0.3 F1920.0 E4814.759
G1 X64.22 Y4.39 Z0.3 F1920.0 E4815.728
G1 X54.89 Y-4.94 Z0.3 F1920.0 E4837.386
G1 X54.3 Y-4.94 Z0.3 F1920.0 E4838.348
G1 X63.63 Y4.39 Z0.3 F1920.0 E4859.998
G1 X63.04 Y4.39 Z0.3 F1920.0 E4860.965
G1 X53.72 Y-4.93 Z0.3 F1920.0 E4882.608
G1 X53.13 Y-4.92 Z0.3 F1920.0 E4883.57
G1 X62.45 Y4.39 Z0.3 F1920.0 E4905.205
G1 X61.86 Y4.4 Z0.3 F1920.0 E4906.174
G1 X52.55 Y-4.92 Z0.3 F1920.0 E4927.799
G1 X51.96 Y-4.91 Z0.3 F1920.0 E4928.762
G1 X61.27 Y4.4 Z0.3 F1920.0 E4950.379
G1 X60.68 Y4.4 Z0.3 F1920.0 E4951.346
G1 X51.37 Y-4.9 Z0.3 F1920.0 E4972.955
G1 X50.79 Y-4.9 Z0.3 F1920.0 E4973.918
G1 X60.09 Y4.41 Z0.3 F1920.0 E4995.52
G1 X59.5 Y4.41 Z0.3 F1920.0 E4996.489
G1 X50.2 Y-4.89 Z0.3 F1920.0 E5018.082
G1 X49.62 Y-4.88 Z0.3 F1920.0 E5019.042
G1 X58.91 Y4.41 Z0.3 F1920.0 E5040.629
G1 X58.32 Y4.42 Z0.3 F1920.0 E5041.596
G1 X49.03 Y-4.88 Z0.3 F1920.0 E5063.174
G1 X48.44 Y-4.87 Z0.3 F1920.0 E5064.136
G1 X57.73 Y4.42 Z0.3 F1920.0 E5085.705
G1 X57.14 Y4.42 Z0.3 F1920.0 E5086.672
G1 X47.86 Y-4.86 Z0.3 F1920.0 E5108.233
G1 X47.27 Y-4.86 Z0.3 F1920.0 E5109.194
G1 X56.56 Y4.43 Z0.3 F1920.0 E5130.746
G1 X55.97 Y4.43 Z0.3 F1920.0 E5131.713
G1 X46.69 Y-4.85 Z0.3 F1920.0 E5153.259
G1 X46.1 Y-4.84 Z0.3 F1920.0 E5154.221
G1 X55.38 Y4.43 Z0.3 F1920.0 E5175.757
G1 X54.79 Y4.43 Z0.3 F1920.0 E5176.724
G1 X45.52 Y-4.84 Z0.3 F1920.0 E5198.252
G1 X44.93 Y-4.83 Z0.3 F1920.0 E5199.215
G1 X54.2 Y4.44 Z0.3 F1920.0 E5220.736
G1 X53.61 Y4.44 Z0.3 F1920.0 E5221.704
G1 X44.34 Y-4.82 Z0.3 F1920.0 E5243.216
G1 X43.76 Y-4.82 Z0.3 F1920.0 E5244.178
G1 X53.02 Y4.44 Z0.3 F1920.0 E5265.683
G1 X52.43 Y4.45 Z0.3 F1920.0 E5266.65
G1 X43.17 Y-4.81 Z0.3 F1920.0 E5288.147
G1 X42.59 Y-4.81 Z0.3 F1920.0 E5289.109
G1 X51.84 Y4.45 Z0.3 F1920.0 E5310.599
G1 X51.25 Y4.45 Z0.3 F1920.0 E5311.568
G1 X42.0 Y-4.8 Z0.3 F1920.0 E5333.048
G1 X41.42 Y-4.79 Z0.3 F1920.0 E5334.009
G1 X50.66 Y4.46 Z0.3 F1920.0 E5355.48
G1 X50.07 Y4.46 Z0.3 F1920.0 E5356.447
G1 X40.83 Y-4.79 Z0.3 F1920.0 E5377.911
G1 X40.24 Y-4.78 Z0.3 F1920.0 E5378.874
G1 X49.48 Y4.46 Z0.3 F1920.0 E5400.33
G1 X48.89 Y4.47 Z0.3 F1920.0 E5401.298
G1 X39.66 Y-4.77 Z0.3 F1920.0 E5422.746
G1 X39.07 Y-4.76 Z0.3 F1920.0 E5423.707
G1 X48.31 Y4.47 Z0.3 F1920.0 E5445.147
G1 X47.72 Y4.47 Z0.3 F1920.0 E5446.114
G1 X38.49 Y-4.76 Z0.3 F1920.0 E5467.545
G1 X37.9 Y-4.75 Z0.3 F1920.0 E5468.508
G1 X47.13 Y4.47 Z0.3 F1920.0 E5489.931
G1 X46.54 Y4.48 Z0.3 F1920.0 E5490.898
G1 X37.31 Y-4.75 Z0.3 F1920.0 E5512.314
G1 X36.73 Y-4.74 Z0.3 F1920.0 E5513.276
G1 X45.95 Y4.48 Z0.3 F1920.0 E5534.684
G1 X45.36 Y4.48 Z0.3 F1920.0 E5535.652
G1 X36.14 Y-4.73 Z0.3 F1920.0 E5557.051
G1 X35.56 Y-4.72 Z0.3 F1920.0 E5558.013
G1 X44.77 Y4.49 Z0.3 F1920.0 E5579.403
G1 X44.18 Y4.49 Z0.3 F1920.0 E5580.37
G1 X34.97 Y-4.72 Z0.3 F1920.0 E5601.753
G1 X34.39 Y-4.71 Z0.3 F1920.0 E5602.715
G1 X43.59 Y4.49 Z0.3 F1920.0 E5624.09
G1 X43.0 Y4.5 Z0.3 F1920.0 E5625.059
G1 X33.8 Y-4.71 Z0.3 F1920.0 E5646.425
G1 X33.21 Y-4.7 Z0.3 F1920.0 E5647.386
G1 X42.41 Y4.5 Z0.3 F1920.0 E5668.744
G1 X41.82 Y4.5 Z0.3 F1920.0 E5669.712
G1 X32.63 Y-4.69 Z0.3 F1920.0 E5691.062
G1 X32.04 Y-4.69 Z0.3 F1920.0 E5692.024
G1 X41.23 Y4.51 Z0.3 F1920.0 E5713.368
G1 X40.64 Y4.51 Z0.3 F1920.0 E5714.336
G1 X31.46 Y-4.68 Z0.3 F1920.0 E5735.671
G1 X30.87 Y-4.67 Z0.3 F1920.0 E5736.631
G1 X40.06 Y4.51 Z0.3 F1920.0 E5757.957
G1 X39.47 Y4.51 Z0.3 F1920.0 E5758.924
G1 X30.29 Y-4.67 Z0.3 F1920.0 E5780.242
G1 X29.7 Y-4.66 Z0.3 F1920.0 E5781.204
G1 X38.88 Y4.52 Z0.3 F1920.0 E5802.514
G1 X38.29 Y4.52 Z0.3 F1920.0 E5803.483
G1 X29.11 Y-4.65 Z0.3 F1920.0 E5824.785
G1 X28.53 Y-4.65 Z0.3 F1920.0 E5825.747
G1 X37.7 Y4.52 Z0.3 F1920.0 E5847.04
G1 X37.11 Y4.53 Z0.3 F1920.0 E5848.007
G1 X27.94 Y-4.64 Z0.3 F1920.0 E5869.294
G1 X27.36 Y-4.63 Z0.3 F1920.0 E5870.256
G1 X36.52 Y4.53 Z0.3 F1920.0 E5891.533
G1 X35.93 Y4.53 Z0.3 F1920.0 E5892.501
G1 X26.77 Y-4.63 Z0.3 F1920.0 E5913.77
G1 X26.18 Y-4.62 Z0.3 F1920.0 E5914.732
G1 X35.34 Y4.54 Z0.3 F1920.0 E5935.994
G1 X34.75 Y4.54 Z0.3 F1920.0 E5936.961
G1 X25.6 Y-4.61 Z0.3 F1920.0 E5958.215
G1 X25.01 Y-4.61 Z0.3 F1920.0 E5959.176
G1 X34.16 Y4.54 Z0.3 F1920.0 E5980.421
G1 X33.57 Y4.55 Z0.3 F1920.0 E5981.388
G1 X24.43 Y-4.6 Z0.3 F1920.0 E6002.624
G1 X23.84 Y-4.59 Z0.3 F1920.0 E6003.587
G1 X32.98 Y4.55 Z0.3 F1920.0 E6024.815
G1 X32.39 Y4.55 Z0.3 F1920.0 E6025.784
G1 X23.26 Y-4.59 Z0.3 F1920.0 E6047.004
G1 X22.67 Y-4.58 Z0.3 F1920.0 E6047.965
G1 X31.81 Y4.56 Z0.3 F1920.0 E6069.177
G1 X31.22 Y4.56 Z0.3 F1920.0 E6070.144
G1 X22.08 Y-4.57 Z0.3 F1920.0 E6091.349
G1 X21.5 Y-4.57 Z0.3 F1920.0 E6092.312
G1 X30.63 Y4.56 Z0.3 F1920.0 E6113.509
G1 X30.04 Y4.57 Z0.3 F1920.0 E6114.478
G1 X20.91 Y-4.56 Z0.3 F1920.0 E6135.665
G1 X20.33 Y-4.55 Z0.3 F1920.0 E6136.628
G1 X29.45 Y4.57 Z0.3 F1920.0 E6157.809
G1 X28.86 Y4.57 Z0.3 F1920.0 E6158.776
G1 X19.74 Y-4.55 Z0.3 F1920.0 E6179.947
G1 X19.16 Y-4.54 Z0.3 F1920.0 E6180.91
G1 X28.27 Y4.57 Z0.3 F1920.0 E6202.074
G1 X27.68 Y4.58 Z0.3 F1920.0 E6203.043
G1 X18.57 Y-4.53 Z0.3 F1920.0 E6224.198
G1 X17.98 Y-4.53 Z0.3 F1920.0 E6225.161
G1 X27.09 Y4.58 Z0.3 F1920.0 E6246.308
G1 X26.5 Y4.58 Z0.3 F1920.0 E6247.275
G1 X17.4 Y-4.52 Z0.3 F1920.0 E6268.414
G1 X16.81 Y-4.51 Z0.3 F1920.0 E6269.376
G1 X25.91 Y4.59 Z0.3 F1920.0 E6290.507
G1 X25.32 Y4.59 Z0.3 F1920.0 E6291.474
G1 X16.23 Y-4.51 Z0.3 F1920.0 E6312.598
G1 X15.64 Y-4.5 Z0.3 F1920.0 E6313.561
G1 X24.73 Y4.59 Z0.3 F1920.0 E6334.677
G1 X24.15 Y4.6 Z0.3 F1920.0 E6335.644
G1 X15.05 Y-4.49 Z0.3 F1920.0 E6356.751
G1 X14.47 Y-4.49 Z0.3 F1920.0 E6357.712
G1 X23.56 Y4.6 Z0.3 F1920.0 E6378.81
G1 X22.97 Y4.6 Z0.3 F1920.0 E6379.778
G1 X13.88 Y-4.48 Z0.3 F1920.0 E6400.868
G1 X13.3 Y-4.47 Z0.3 F1920.0 E6401.83
G1 X22.38 Y4.61 Z0.3 F1920.0 E6422.913
G1 X21.79 Y4.61 Z0.3 F1920.0 E6423.881
G1 X12.71 Y-4.47 Z0.3 F1920.0 E6444.956
G1 X12.13 Y-4.46 Z0.3 F1920.0 E6445.918
G1 X21.2 Y4.61 Z0.3 F1920.0 E6466.984
G1 X20.61 Y4.62 Z0.3 F1920.0 E6467.951
G1 X11.54 Y-4.46 Z0.3 F1920.0 E6489.01
G1 X10.95 Y-4.45 Z0.3 F1920.0 E6489.972
G1 X20.02 Y4.62 Z0.3 F1920.0 E6511.023
G1 X19.43 Y4.62 Z0.3 F1920.0 E6511.992
G1 X10.37 Y-4.44 Z0.3 F1920.0 E6533.035
G1 X9.78 Y-4.43 Z0.3 F1920.0 E6533.997
G1 X18.84 Y4.62 Z0.3 F1920.0 E6555.032
G1 X18.25 Y4.63 Z0.3 F1920.0 E6555.999
G1 X7.0 Y-6.63 Z0.3 F1920.0 E6582.128
G1 X7.46 Y-6.76 Z0.3 F1920.0 E6582.912
G1 X8.46 Y-5.76 Z0.3 F1920.0 E6585.231
G1 X8.71 Y-6.1 Z0.3 F1920.0 E6585.925
G1 X7.92 Y-6.89 Z0.3 F1920.0 E6587.768
G1 X8.38 Y-7.03 Z0.3 F1920.0 E6588.553
G1 X9.04 Y-6.37 Z0.3 F1920.0 E6590.085
G1 X9.48 Y-6.51 Z0.3 F1920.0 E6590.857
G1 X8.84 Y-7.16 Z0.3 F1920.0 E6592.361
G1 X9.3 Y-7.29 Z0.3 F1920.0 E6593.145
G1 X9.96 Y-6.63 Z0.3 F1920.0 E6594.692
G1 X10.44 Y-6.74 Z0.3 F1920.0 E6595.497
G1 X9.76 Y-7.42 Z0.3 F1920.0 E6597.083
G1 X10.22 Y-7.56 Z0.3 F1920.0 E6597.868
G1 X10.92 Y-6.86 Z0.3 F1920.0 E6599.495
G1 X11.39 Y-6.97 Z0.3 F1920.0 E6600.301
G1 X10.68 Y-7.69 Z0.3 F1920.0 E6601.969
G1 X11.13 Y-7.82 Z0.3 F1920.0 E6602.754
G1 X11.87 Y-7.09 Z0.3 F1920.0 E6604.464
G1 X12.35 Y-7.2 Z0.3 F1920.0 E6605.27
G1 X11.59 Y-7.96 Z0.3 F1920.0 E6607.02
G1 X12.05 Y-8.09 Z0.3 F1920.0 E6607.805
G1 X12.83 Y-7.32 Z0.3 F1920.0 E6609.598
G1 X13.3 Y-7.43 Z0.3 F1920.0 E6610.405
G1 X12.51 Y-8.22 Z0.3 F1920.0 E6612.239
G1 X12.97 Y-8.35 Z0.3 F1920.0 E6613.024
G1 X13.78 Y-7.55 Z0.3 F1920.0 E6614.9
G1 X14.26 Y-7.66 Z0.3 F1920.0 E6615.706
G1 X13.43 Y-8.49 Z0.3 F1920.0 E6617.621
G1 X13.89 Y-8.62 Z0.3 F1920.0 E6618.406
G1 X14.74 Y-7.78 Z0.3 F1920.0 E6620.364
G1 X15.21 Y-7.89 Z0.3 F1920.0 E6621.17
G1 X14.35 Y-8.75 Z0.3 F1920.0 E6623.169
G1 X14.81 Y-8.89 Z0.3 F1920.0 E6623.954
G1 X15.69 Y-8.01 Z0.3 F1920.0 E6625.995
G1 X16.17 Y-8.12 Z0.3 F1920.0 E6626.8
G1 X15.27 Y-9.02 Z0.3 F1920.0 E6628.882
G1 X15.73 Y-9.15 Z0.3 F1920.0 E6629.667
G1 X16.64 Y-8.24 Z0.3 F1920.0 E6631.791
G1 X17.12 Y-8.35 Z0.3 F1920.0 E6632.597
G1 X16.19 Y-9.28 Z0.3 F1920.0 E6634.761
G1 X16.65 Y-9.42 Z0.3 F1920.0 E6635.546
G1 X17.6 Y-8.47 Z0.3 F1920.0 E6637.752
G1 X17.65 Y-9.01 Z0.3 F1920.0 E6638.65
G1 X17.11 Y-9.55 Z0.3 F1920.0 E6639.897
;M103
G1 X16.38 Y-7.51 Z0.3 F3600.0
G1 X9.68 Y-5.26 Z0.3 F3600.0
G1 X9.73 Y-5.38 Z0.3 F3600.0
G1 X9.71 Y-5.6 Z0.3 F3600.0
G1 X9.63 Y-5.7 Z0.3 F3600.0
G1 X15.96 Y-5.19 Z0.3 F3600.0
G1 X12.79 Y5.35 Z0.3 F3600.0
G1 X9.69 Y5.94 Z0.3 F3600.0
G1 X9.75 Y5.85 Z0.3 F3600.0
G1 X9.78 Y5.64 Z0.3 F3600.0
G1 X9.75 Y5.54 Z0.3 F3600.0
G1 X12.41 Y6.97 Z0.3 F3600.0
G1 X11.74 Y9.34 Z0.3 F3600.0
G1 X-0.02 Y6.32 Z0.3 F3600.0
G1 X-0.76 Y7.77 Z0.3 F3600.0
G1 X10.25 Y14.31 Z0.3 F3600.0
G1 X9.64 Y16.75 Z0.3 F2880.0
;M101
G1 X4.87 Y11.98 Z0.3 F1920.0 E6650.96
G1 X3.47 Y11.17 Z0.3 F1920.0 E6653.614
;M103
G1 X4.62 Y12.32 Z0.3 F2880.0
;M101
G1 X8.09 Y15.79 Z0.3 F1920.0 E6661.68
;M103
G1 X15.83 Y20.57 Z0.3 F2880.0
;M101
G1 X10.47 Y15.21 Z0.3 F1920.0 E6674.119
G1 X9.07 Y14.4 Z0.3 F1920.0 E6676.772
;M103
G1 X10.22 Y15.55 Z0.3 F2880.0
;M101
G1 X14.28 Y19.61 Z0.3 F1920.0 E6686.212
;M103
G1 X12.73 Y18.66 Z0.3 F2880.0
;M101
G1 X7.67 Y13.6 Z0.3 F1920.0 E6697.964
G1 X6.27 Y12.79 Z0.3 F1920.0 E6700.618
;M103
G1 X7.42 Y13.93 Z0.3 F2880.0
;M101
G1 X11.19 Y17.7 Z0.3 F1920.0 E6709.371
;M103
G1 X11.87 Y16.02 Z0.3 F2880.0
;M101
G1 X17.38 Y21.52 Z0.3 F1920.0 E6722.153
G1 X18.93 Y22.48 Z0.3 F1920.0 E6725.14
;M103
G1 X17.64 Y21.19 Z0.3 F2880.0
;M101
G1 X13.27 Y16.83 Z0.3 F1920.0 E6735.278
;M103
G1 X14.67 Y17.63 Z0.3 F2880.0
;M101
G1 X20.47 Y23.44 Z0.3 F1920.0 E6748.746
G1 X22.02 Y24.39 Z0.3 F1920.0 E6751.733
;M103
G1 X20.73 Y23.1 Z0.3 F2880.0
;M101
G1 X16.07 Y18.44 Z0.3 F1920.0 E6762.556
;M103
G1 X17.47 Y19.25 Z0.3 F2880.0
;M101
G1 X23.57 Y25.35 Z0.3 F1920.0 E6776.711
G1 X25.12 Y26.3 Z0.3 F1920.0 E6779.698
;M103
G1 X23.83 Y25.02 Z0.3 F2880.0
;M101
G1 X18.87 Y20.06 Z0.3 F1920.0 E6791.209
;M103
G1 X20.27 Y20.87 Z0.3 F2880.0
;M101
G1 X26.67 Y27.26 Z0.3 F1920.0 E6806.051
G1 X28.13 Y28.13 Z0.3 F1920.0 E6808.86
;M103
G1 X26.92 Y26.92 Z0.3 F2880.0
;M101
G1 X21.67 Y21.67 Z0.3 F1920.0 E6821.053
;M103
G1 X23.07 Y22.48 Z0.3 F2880.0
;M101
G1 X28.37 Y27.78 Z0.3 F1920.0 E6833.362
G1 X28.62 Y27.43 Z0.3 F1920.0 E6834.062
G1 X24.47 Y23.29 Z0.3 F1920.0 E6843.68
;M103
G1 X25.87 Y24.1 Z0.3 F2880.0
;M101
G1 X28.86 Y27.08 Z0.3 F1920.0 E6850.604
G1 X29.1 Y26.73 Z0.3 F1920.0 E6851.304
G1 X27.27 Y24.9 Z0.3 F1920.0 E6855.536
;M103
G1 X28.67 Y25.71 Z0.3 F2880.0
;M101
G1 X29.34 Y26.37 Z0.3 F1920.0 E6857.075
;M103
G1 X23.02 Y25.82 Z0.3 F3600.0
G1 X-2.28 Y10.37 Z0.3 F3600.0
G1 X-3.21 Y11.69 Z0.3 F3600.0
G1 X9.5 Y25.3 Z0.3 F3600.0
G1 X9.36 Y25.23 Z0.3 F3600.0
G1 X8.2 Y25.37 Z0.3 F2880.0
;M101
G1 X-29.19 Y-12.01 Z0.3 F1920.0 E6943.87
G1 X-29.44 Y-11.67 Z0.3 F1920.0 E6944.564
G1 X-5.19 Y12.58 Z0.3 F1920.0 E7000.869
G1 X-5.55 Y12.82 Z0.3 F1920.0 E7001.571
G1 X-29.7 Y-11.34 Z0.3 F1920.0 E7057.649
G1 X-29.96 Y-11.0 Z0.3 F1920.0 E7058.342
G1 X-5.91 Y13.05 Z0.3 F1920.0 E7114.191
G1 X-6.26 Y13.29 Z0.3 F1920.0 E7114.891
G1 X-30.21 Y-10.67 Z0.3 F1920.0 E7170.511
G1 X-30.47 Y-10.33 Z0.3 F1920.0 E7171.205
G1 X-6.62 Y13.53 Z0.3 F1920.0 E7226.598
G1 X-6.97 Y13.76 Z0.3 F1920.0 E7227.3
G1 X-30.73 Y-10.0 Z0.3 F1920.0 E7282.464
G1 X-31.11 Y-9.78 Z0.3 F1920.0 E7283.178
G1 X-7.33 Y14.0 Z0.3 F1920.0 E7338.391
G1 X-7.68 Y14.24 Z0.3 F1920.0 E7339.093
G1 X-32.67 Y-10.75 Z0.3 F1920.0 E7397.099
G1 X-34.22 Y-11.71 Z0.3 F1920.0 E7400.109
;M103
G1 X-32.93 Y-10.42 Z0.3 F2880.0
;M101
G1 X-6.99 Y15.52 Z0.3 F1920.0 E7460.328
G1 X-6.16 Y16.95 Z0.3 F1920.0 E7463.042
;M103
G1 X-7.7 Y17.18 Z0.3 F2880.0
;M101
G1 X-3.65 Y21.23 Z0.3 F1920.0 E7472.446
G1 X-2.82 Y22.65 Z0.3 F1920.0 E7475.161
;M103
G1 X-3.99 Y21.48 Z0.3 F2880.0
;M101
G1 X-7.04 Y18.43 Z0.3 F1920.0 E7482.245
;M103
G1 X-5.66 Y18.63 Z0.3 F2880.0
;M101
G1 X-8.37 Y15.92 Z0.3 F1920.0 E7488.543
;M103
G1 X-7.33 Y15.78 Z0.3 F2880.0
;M101
G1 X-35.78 Y-12.68 Z0.3 F1920.0 E7554.615
G1 X-37.34 Y-13.64 Z0.3 F1920.0 E7557.626
;M103
G1 X-36.04 Y-12.35 Z0.3 F2880.0
;M101
G1 X-32.01 Y-8.32 Z0.3 F1920.0 E7566.988
;M103
G1 X-31.6 Y-7.91 Z0.3 F2880.0
;M101
G1 X-5.32 Y18.37 Z0.3 F1920.0 E7628.008
G1 X-4.49 Y19.8 Z0.3 F1920.0 E7630.723
;M103
G1 X-2.32 Y24.34 Z0.3 F2880.0
;M101
G1 X-5.71 Y20.95 Z0.3 F1920.0 E7638.592
;M103
G1 X-5.04 Y22.21 Z0.3 F2880.0
;M101
G1 X-0.32 Y26.93 Z0.3 F1920.0 E7649.568
G1 X0.52 Y28.36 Z0.3 F1920.0 E7652.282
;M103
G1 X-0.65 Y27.19 Z0.3 F2880.0
;M101
G1 X-4.38 Y23.47 Z0.3 F1920.0 E7660.937
;M103
G1 X-3.71 Y24.72 Z0.3 F2880.0
;M101
G1 X1.35 Y29.79 Z0.3 F1920.0 E7672.699
G1 X2.19 Y31.22 Z0.3 F1920.0 E7675.414
;M103
G1 X1.02 Y30.05 Z0.3 F2880.0
;M101
G1 X-3.05 Y25.98 Z0.3 F1920.0 E7684.855
;M103
G1 X-2.38 Y27.24 Z0.3 F2880.0
;M101
G1 X3.02 Y32.64 Z0.3 F1920.0 E7697.402
G1 X3.86 Y34.07 Z0.3 F1920.0 E7700.116
;M103
G1 X2.69 Y32.9 Z0.3 F2880.0
;M101
G1 X-1.72 Y28.5 Z0.3 F1920.0 E7710.342
;M103
G1 X-1.05 Y29.75 Z0.3 F2880.0
;M101
G1 X4.69 Y35.5 Z0.3 F1920.0 E7723.677
G1 X5.53 Y36.92 Z0.3 F1920.0 E7726.39
;M103
G1 X4.36 Y35.75 Z0.3 F2880.0
;M101
G1 X-0.39 Y31.01 Z0.3 F1920.0 E7737.402
;M103
G1 X0.28 Y32.27 Z0.3 F2880.0
;M101
G1 X6.36 Y38.35 Z0.3 F1920.0 E7751.52
G1 X7.2 Y39.78 Z0.3 F1920.0 E7754.234
;M103
G1 X6.03 Y38.61 Z0.3 F2880.0
;M101
G1 X0.95 Y33.53 Z0.3 F1920.0 E7766.03
;M103
G1 X1.61 Y34.78 Z0.3 F2880.0
;M101
G1 X8.03 Y41.2 Z0.3 F1920.0 E7780.934
G1 X8.86 Y42.63 Z0.3 F1920.0 E7783.648
;M103
G1 X7.7 Y41.46 Z0.3 F2880.0
;M101
G1 X2.28 Y36.04 Z0.3 F1920.0 E7796.231
;M103
G1 X2.94 Y37.3 Z0.3 F2880.0
;M101
G1 X9.7 Y44.06 Z0.3 F1920.0 E7811.92
G1 X10.53 Y45.48 Z0.3 F1920.0 E7814.634
;M103
G1 X9.36 Y44.32 Z0.3 F2880.0
;M101
G1 X3.61 Y38.56 Z0.3 F1920.0 E7828.001
;M103
G1 X4.27 Y39.82 Z0.3 F2880.0
;M101
G1 X10.71 Y46.25 Z0.3 F1920.0 E7842.948
G1 X10.31 Y46.45 Z0.3 F1920.0 E7843.673
G1 X4.94 Y41.07 Z0.3 F1920.0 E7856.154
;M103
G1 X5.6 Y42.33 Z0.3 F2880.0
;M101
G1 X9.92 Y46.64 Z0.3 F1920.0 E7866.17
G1 X9.52 Y46.84 Z0.3 F1920.0 E7866.896
G1 X6.27 Y43.59 Z0.3 F1920.0 E7874.447
;M103
G1 X6.93 Y44.85 Z0.3 F2880.0
;M101
G1 X9.13 Y47.04 Z0.3 F1920.0 E7879.533
G1 X8.73 Y47.23 Z0.3 F1920.0 E7880.259
G1 X7.6 Y46.1 Z0.3 F1920.0 E7882.883
;M103
G1 X8.27 Y47.36 Z0.3 F2880.0
;M101
G1 X8.33 Y47.43 Z0.3 F1920.0 E7883.041
;M103
G1 X6.64 Y45.76 Z0.3 F3600.0
G1 X-9.22 Y16.1 Z0.3 F3600.0
G1 X-10.68 Y16.82 Z0.3 F3600.0
G1 X-5.97 Y34.97 Z0.3 F3600.0
G1 X-7.14 Y35.08 Z0.3 F3600.0
G1 X-8.07 Y34.58 Z0.3 F2880.0
;M101
G1 X-8.25 Y34.4 Z0.3 F1920.0 E7883.464
G1 X-7.57 Y34.49 Z0.3 F1920.0 E7884.584
G1 X-8.44 Y33.62 Z0.3 F1920.0 E7886.588
G1 X-8.62 Y32.84 Z0.3 F1920.0 E7887.903
G1 X-7.08 Y34.39 Z0.3 F1920.0 E7891.488
G1 X-7.11 Y33.77 Z0.3 F1920.0 E7892.512
G1 X-8.81 Y32.07 Z0.3 F1920.0 E7896.461
G1 X-9.0 Y31.29 Z0.3 F1920.0 E7897.776
G1 X-7.32 Y32.97 Z0.3 F1920.0 E7901.673
G1 X-7.53 Y32.16 Z0.3 F1920.0 E7903.032
G1 X-9.18 Y30.51 Z0.3 F1920.0 E7906.879
G1 X-9.37 Y29.73 Z0.3 F1920.0 E7908.195
G1 X-7.73 Y31.36 Z0.3 F1920.0 E7911.992
G1 X-7.94 Y30.56 Z0.3 F1920.0 E7913.349
G1 X-9.56 Y28.95 Z0.3 F1920.0 E7917.097
G1 X-9.74 Y28.17 Z0.3 F1920.0 E7918.412
G1 X-8.15 Y29.76 Z0.3 F1920.0 E7922.11
G1 X-8.36 Y28.96 Z0.3 F1920.0 E7923.467
G1 X-9.93 Y27.39 Z0.3 F1920.0 E7927.115
G1 X-10.12 Y26.61 Z0.3 F1920.0 E7928.43
G1 X-8.57 Y28.16 Z0.3 F1920.0 E7932.027
G1 X-8.78 Y27.36 Z0.3 F1920.0 E7933.384
G1 X-10.3 Y25.83 Z0.3 F1920.0 E7936.932
G1 X-10.49 Y25.05 Z0.3 F1920.0 E7938.247
G1 X-8.98 Y26.56 Z0.3 F1920.0 E7941.744
G1 X-9.19 Y25.76 Z0.3 F1920.0 E7943.103
G1 X-10.68 Y24.28 Z0.3 F1920.0 E7946.55
G1 X-10.86 Y23.5 Z0.3 F1920.0 E7947.865
G1 X-9.4 Y24.96 Z0.3 F1920.0 E7951.262
G1 X-9.61 Y24.16 Z0.3 F1920.0 E7952.621
G1 X-11.05 Y22.72 Z0.3 F1920.0 E7955.967
G1 X-11.24 Y21.94 Z0.3 F1920.0 E7957.282
G1 X-9.82 Y23.36 Z0.3 F1920.0 E7960.58
G1 X-10.02 Y22.56 Z0.3 F1920.0 E7961.938
G1 X-11.42 Y21.16 Z0.3 F1920.0 E7965.184
G1 X-11.61 Y20.38 Z0.3 F1920.0 E7966.5
G1 X-10.23 Y21.76 Z0.3 F1920.0 E7969.697
G1 X-10.44 Y20.96 Z0.3 F1920.0 E7971.056
G1 X-11.8 Y19.6 Z0.3 F1920.0 E7974.203
G1 X-11.98 Y18.82 Z0.3 F1920.0 E7975.518
G1 X-10.65 Y20.16 Z0.3 F1920.0 E7978.613
G1 X-10.86 Y19.36 Z0.3 F1920.0 E7979.971
G1 X-12.17 Y18.04 Z0.3 F1920.0 E7983.017
G1 X-12.36 Y17.26 Z0.3 F1920.0 E7984.332
G1 X-11.07 Y18.55 Z0.3 F1920.0 E7987.327
;M103
G1 X-10.68 Y16.82 Z0.3 F3600.0
G1 X-9.16 Y15.13 Z0.3 F2880.0
;M101
G1 X-31.79 Y-7.5 Z0.3 F1920.0 E8039.863
G1 X-31.97 Y-7.09 Z0.3 F1920.0 E8040.6
G1 X-9.55 Y15.33 Z0.3 F1920.0 E8092.653
G1 X-9.94 Y15.53 Z0.3 F1920.0 E8093.373
G1 X-32.15 Y-6.68 Z0.3 F1920.0 E8144.943
G1 X-32.33 Y-6.27 Z0.3 F1920.0 E8145.678
G1 X-10.33 Y15.73 Z0.3 F1920.0 E8196.767
G1 X-10.72 Y15.94 Z0.3 F1920.0 E8197.49
G1 X-32.52 Y-5.86 Z0.3 F1920.0 E8248.095
G1 X-32.7 Y-5.45 Z0.3 F1920.0 E8248.832
G1 X-11.11 Y16.14 Z0.3 F1920.0 E8298.955
G1 X-11.5 Y16.34 Z0.3 F1920.0 E8299.677
G1 X-33.38 Y-5.53 Z0.3 F1920.0 E8350.463
G1 X-34.17 Y-5.74 Z0.3 F1920.0 E8351.811
G1 X-11.48 Y16.95 Z0.3 F1920.0 E8404.494
G1 X-11.27 Y17.75 Z0.3 F1920.0 E8405.852
G1 X-33.36 Y-4.33 Z0.3 F1920.0 E8457.14
G1 X-33.38 Y-3.76 Z0.3 F1920.0 E8458.088
G1 X-13.22 Y16.4 Z0.3 F1920.0 E8504.894
G1 X-13.73 Y16.48 Z0.3 F1920.0 E8505.742
G1 X-33.39 Y-3.18 Z0.3 F1920.0 E8551.4
G1 X-33.41 Y-2.6 Z0.3 F1920.0 E8552.348
G1 X-14.24 Y16.57 Z0.3 F1920.0 E8596.86
G1 X-14.75 Y16.65 Z0.3 F1920.0 E8597.708
G1 X-33.42 Y-2.03 Z0.3 F1920.0 E8641.071
G1 X-33.44 Y-1.45 Z0.3 F1920.0 E8642.018
G1 X-15.26 Y16.73 Z0.3 F1920.0 E8684.234
G1 X-15.62 Y16.96 Z0.3 F1920.0 E8684.941
G1 X-33.45 Y-0.87 Z0.3 F1920.0 E8726.339
G1 X-33.96 Y-0.79 Z0.3 F1920.0 E8727.19
G1 X-15.61 Y17.57 Z0.3 F1920.0 E8769.81
G1 X-15.6 Y18.17 Z0.3 F1920.0 E8770.805
G1 X-34.56 Y-0.8 Z0.3 F1920.0 E8814.85
G1 X-35.16 Y-0.81 Z0.3 F1920.0 E8815.835
G1 X-33.53 Y0.83 Z0.3 F1920.0 E8819.63
G1 X-34.18 Y0.77 Z0.3 F1920.0 E8820.703
G1 X-35.76 Y-0.81 Z0.3 F1920.0 E8824.378
G1 X-36.36 Y-0.82 Z0.3 F1920.0 E8825.363
G1 X-34.76 Y0.78 Z0.3 F1920.0 E8829.083
G1 X-35.34 Y0.79 Z0.3 F1920.0 E8830.039
G1 X-36.96 Y-0.83 Z0.3 F1920.0 E8833.802
G1 X-37.56 Y-0.84 Z0.3 F1920.0 E8834.787
G1 X-35.92 Y0.8 Z0.3 F1920.0 E8838.591
G1 X-36.51 Y0.81 Z0.3 F1920.0 E8839.547
G1 X-38.16 Y-0.84 Z0.3 F1920.0 E8843.395
G1 X-38.76 Y-0.85 Z0.3 F1920.0 E8844.38
G1 X-37.09 Y0.82 Z0.3 F1920.0 E8848.272
G1 X-37.67 Y0.84 Z0.3 F1920.0 E8849.227
G1 X-39.37 Y-0.86 Z0.3 F1920.0 E8853.163
G1 X-39.97 Y-0.87 Z0.3 F1920.0 E8854.148
G1 X-38.25 Y0.85 Z0.3 F1920.0 E8858.127
G1 X-38.83 Y0.86 Z0.3 F1920.0 E8859.083
G1 X-40.57 Y-0.88 Z0.3 F1920.0 E8863.104
G1 X-41.17 Y-0.88 Z0.3 F1920.0 E8864.089
G1 X-39.42 Y0.87 Z0.3 F1920.0 E8868.154
G1 X-40.0 Y0.88 Z0.3 F1920.0 E8869.108
G1 X-41.77 Y-0.89 Z0.3 F1920.0 E8873.215
G1 X-42.37 Y-0.9 Z0.3 F1920.0 E8874.2
G1 X-40.58 Y0.89 Z0.3 F1920.0 E8878.349
G1 X-41.16 Y0.9 Z0.3 F1920.0 E8879.303
G1 X-42.97 Y-0.91 Z0.3 F1920.0 E8883.497
G1 X-43.57 Y-0.91 Z0.3 F1920.0 E8884.482
G1 X-41.74 Y0.91 Z0.3 F1920.0 E8888.718
G1 X-42.32 Y0.92 Z0.3 F1920.0 E8889.672
G1 X-44.17 Y-0.92 Z0.3 F1920.0 E8893.952
G1 X-44.77 Y-0.93 Z0.3 F1920.0 E8894.937
G1 X-42.9 Y0.93 Z0.3 F1920.0 E8899.259
G1 X-43.49 Y0.94 Z0.3 F1920.0 E8900.213
G1 X-45.37 Y-0.94 Z0.3 F1920.0 E8904.58
G1 X-45.97 Y-0.94 Z0.3 F1920.0 E8905.567
G1 X-44.07 Y0.95 Z0.3 F1920.0 E8909.975
G1 X-44.65 Y0.97 Z0.3 F1920.0 E8910.929
G1 X-46.57 Y-0.95 Z0.3 F1920.0 E8915.381
G1 X-47.17 Y-0.96 Z0.3 F1920.0 E8916.367
G1 X-45.23 Y0.98 Z0.3 F1920.0 E8920.862
G1 X-45.81 Y0.99 Z0.3 F1920.0 E8921.816
G1 X-47.77 Y-0.97 Z0.3 F1920.0 E8926.354
G1 X-48.37 Y-0.98 Z0.3 F1920.0 E8927.34
G1 X-46.39 Y1.0 Z0.3 F1920.0 E8931.921
G1 X-46.97 Y1.01 Z0.3 F1920.0 E8932.875
G1 X-48.97 Y-0.98 Z0.3 F1920.0 E8937.5
G1 X-49.57 Y-0.99 Z0.3 F1920.0 E8938.485
G1 X-47.56 Y1.02 Z0.3 F1920.0 E8943.154
G1 X-48.14 Y1.03 Z0.3 F1920.0 E8944.108
G1 X-50.17 Y-1.0 Z0.3 F1920.0 E8948.819
G1 X-50.77 Y-1.01 Z0.3 F1920.0 E8949.804
G1 X-48.72 Y1.04 Z0.3 F1920.0 E8954.557
G1 X-49.3 Y1.05 Z0.3 F1920.0 E8955.511
G1 X-51.37 Y-1.01 Z0.3 F1920.0 E8960.309
G1 X-51.97 Y-1.02 Z0.3 F1920.0 E8961.294
G1 X-49.88 Y1.06 Z0.3 F1920.0 E8966.133
G1 X-50.46 Y1.07 Z0.3 F1920.0 E8967.087
G1 X-52.57 Y-1.03 Z0.3 F1920.0 E8971.971
G1 X-53.17 Y-1.04 Z0.3 F1920.0 E8972.956
G1 X-51.05 Y1.09 Z0.3 F1920.0 E8977.884
G1 X-51.63 Y1.1 Z0.3 F1920.0 E8978.839
G1 X-53.77 Y-1.05 Z0.3 F1920.0 E8983.809
G1 X-54.37 Y-1.05 Z0.3 F1920.0 E8984.795
G1 X-52.21 Y1.11 Z0.3 F1920.0 E8989.808
G1 X-52.79 Y1.12 Z0.3 F1920.0 E8990.763
G1 X-54.97 Y-1.06 Z0.3 F1920.0 E8995.818
G1 X-55.57 Y-1.07 Z0.3 F1920.0 E8996.804
G1 X-53.37 Y1.13 Z0.3 F1920.0 E9001.903
G1 X-53.95 Y1.14 Z0.3 F1920.0 E9002.858
G1 X-56.17 Y-1.08 Z0.3 F1920.0 E9007.999
G1 X-56.77 Y-1.08 Z0.3 F1920.0 E9008.984
G1 X-54.53 Y1.15 Z0.3 F1920.0 E9014.169
G1 X-55.12 Y1.16 Z0.3 F1920.0 E9015.125
G1 X-57.37 Y-1.09 Z0.3 F1920.0 E9020.353
G1 X-57.97 Y-1.1 Z0.3 F1920.0 E9021.338
G1 X-55.7 Y1.17 Z0.3 F1920.0 E9026.609
G1 X-56.28 Y1.18 Z0.3 F1920.0 E9027.565
G1 X-58.57 Y-1.11 Z0.3 F1920.0 E9032.879
G1 X-59.17 Y-1.11 Z0.3 F1920.0 E9033.865
G1 X-56.86 Y1.19 Z0.3 F1920.0 E9039.223
G1 X-57.44 Y1.2 Z0.3 F1920.0 E9040.179
G1 X-59.77 Y-1.12 Z0.3 F1920.0 E9045.58
G1 X-60.37 Y-1.13 Z0.3 F1920.0 E9046.565
G1 X-58.02 Y1.22 Z0.3 F1920.0 E9052.009
G1 X-58.61 Y1.23 Z0.3 F1920.0 E9052.965
G1 X-60.97 Y-1.14 Z0.3 F1920.0 E9058.452
G1 X-61.57 Y-1.15 Z0.3 F1920.0 E9059.437
G1 X-59.19 Y1.24 Z0.3 F1920.0 E9064.968
G1 X-59.77 Y1.25 Z0.3 F1920.0 E9065.923
G1 X-62.17 Y-1.15 Z0.3 F1920.0 E9071.496
G1 X-62.77 Y-1.16 Z0.3 F1920.0 E9072.481
G1 X-60.35 Y1.26 Z0.3 F1920.0 E9078.098
G1 X-60.93 Y1.27 Z0.3 F1920.0 E9079.054
G1 X-63.37 Y-1.17 Z0.3 F1920.0 E9084.712
G1 X-63.97 Y-1.18 Z0.3 F1920.0 E9085.698
G1 X-61.51 Y1.28 Z0.3 F1920.0 E9091.4
G1 X-62.09 Y1.29 Z0.3 F1920.0 E9092.356
G1 X-64.57 Y-1.18 Z0.3 F1920.0 E9098.101
G1 X-65.17 Y-1.19 Z0.3 F1920.0 E9099.086
G1 X-62.68 Y1.3 Z0.3 F1920.0 E9104.873
G1 X-63.26 Y1.31 Z0.3 F1920.0 E9105.828
G1 X-65.77 Y-1.2 Z0.3 F1920.0 E9111.66
G1 X-66.37 Y-1.21 Z0.3 F1920.0 E9112.645
G1 X-63.84 Y1.32 Z0.3 F1920.0 E9118.52
G1 X-64.42 Y1.34 Z0.3 F1920.0 E9119.474
G1 X-66.97 Y-1.21 Z0.3 F1920.0 E9125.393
G1 X-67.57 Y-1.22 Z0.3 F1920.0 E9126.378
G1 X-65.0 Y1.35 Z0.3 F1920.0 E9132.339
G1 X-65.58 Y1.36 Z0.3 F1920.0 E9133.293
G1 X-68.17 Y-1.23 Z0.3 F1920.0 E9139.296
G1 X-68.41 Y-0.87 Z0.3 F1920.0 E9139.997
G1 X-66.17 Y1.37 Z0.3 F1920.0 E9145.2
G1 X-66.75 Y1.38 Z0.3 F1920.0 E9146.154
G1 X-68.39 Y-0.27 Z0.3 F1920.0 E9149.975
G1 X-68.38 Y0.34 Z0.3 F1920.0 E9150.972
G1 X-67.33 Y1.39 Z0.3 F1920.0 E9153.408
G1 X-67.91 Y1.4 Z0.3 F1920.0 E9154.362
G1 X-68.36 Y0.95 Z0.3 F1920.0 E9155.414
;M103
G1 X-34.13 Y1.46 Z0.3 F3600.0
G1 X-33.82 Y1.62 Z0.3 F3600.0
G1 X-33.7 Y1.95 Z0.3 F3600.0
G1 X-34.02 Y3.48 Z0.3 F3600.0
G1 X-50.08 Y8.3 Z0.3 F3600.0
G1 X-49.88 Y8.48 Z0.3 F3600.0
G1 X-49.02 Y9.04 Z0.3 F2880.0
;M101
G1 X-48.39 Y9.66 Z0.3 F1920.0 E9156.866
G1 X-47.93 Y9.53 Z0.3 F1920.0 E9157.648
G1 X-48.7 Y8.76 Z0.3 F1920.0 E9159.435
G1 X-48.25 Y8.62 Z0.3 F1920.0 E9160.215
G1 X-47.48 Y9.39 Z0.3 F1920.0 E9162.007
G1 X-47.02 Y9.26 Z0.3 F1920.0 E9162.789
G1 X-47.8 Y8.48 Z0.3 F1920.0 E9164.585
G1 X-47.34 Y8.34 Z0.3 F1920.0 E9165.366
G1 X-46.57 Y9.12 Z0.3 F1920.0 E9167.165
G1 X-46.11 Y8.98 Z0.3 F1920.0 E9167.946
G1 X-46.89 Y8.21 Z0.3 F1920.0 E9169.751
G1 X-46.43 Y8.07 Z0.3 F1920.0 E9170.53
G1 X-45.65 Y8.85 Z0.3 F1920.0 E9172.339
G1 X-45.2 Y8.71 Z0.3 F1920.0 E9173.12
G1 X-45.98 Y7.93 Z0.3 F1920.0 E9174.934
G1 X-45.52 Y7.79 Z0.3 F1920.0 E9175.713
G1 X-44.74 Y8.57 Z0.3 F1920.0 E9177.531
G1 X-44.29 Y8.44 Z0.3 F1920.0 E9178.313
G1 X-45.07 Y7.65 Z0.3 F1920.0 E9180.134
G1 X-44.62 Y7.51 Z0.3 F1920.0 E9180.915
G1 X-43.83 Y8.3 Z0.3 F1920.0 E9182.742
G1 X-43.37 Y8.16 Z0.3 F1920.0 E9183.523
G1 X-44.16 Y7.38 Z0.3 F1920.0 E9185.354
G1 X-43.71 Y7.24 Z0.3 F1920.0 E9186.133
G1 X-42.92 Y8.03 Z0.3 F1920.0 E9187.967
G1 X-42.46 Y7.89 Z0.3 F1920.0 E9188.75
G1 X-43.25 Y7.1 Z0.3 F1920.0 E9190.59
G1 X-42.8 Y6.96 Z0.3 F1920.0 E9191.37
G1 X-42.0 Y7.76 Z0.3 F1920.0 E9193.216
G1 X-41.55 Y7.62 Z0.3 F1920.0 E9193.997
G1 X-42.35 Y6.82 Z0.3 F1920.0 E9195.848
G1 X-41.89 Y6.69 Z0.3 F1920.0 E9196.627
G1 X-41.09 Y7.48 Z0.3 F1920.0 E9198.481
G1 X-40.64 Y7.35 Z0.3 F1920.0 E9199.262
G1 X-41.44 Y6.55 Z0.3 F1920.0 E9201.12
G1 X-40.98 Y6.41 Z0.3 F1920.0 E9201.899
G1 X-40.18 Y7.21 Z0.3 F1920.0 E9203.761
G1 X-39.72 Y7.07 Z0.3 F1920.0 E9204.543
G1 X-40.53 Y6.27 Z0.3 F1920.0 E9206.409
G1 X-40.07 Y6.13 Z0.3 F1920.0 E9207.189
G1 X-39.27 Y6.94 Z0.3 F1920.0 E9209.06
G1 X-38.81 Y6.8 Z0.3 F1920.0 E9209.841
G1 X-39.62 Y5.99 Z0.3 F1920.0 E9211.717
G1 X-39.17 Y5.86 Z0.3 F1920.0 E9212.497
G1 X-38.36 Y6.67 Z0.3 F1920.0 E9214.376
G1 X-37.9 Y6.53 Z0.3 F1920.0 E9215.157
G1 X-38.71 Y5.72 Z0.3 F1920.0 E9217.042
G1 X-38.26 Y5.58 Z0.3 F1920.0 E9217.821
G1 X-37.44 Y6.39 Z0.3 F1920.0 E9219.71
G1 X-36.99 Y6.26 Z0.3 F1920.0 E9220.492
G1 X-37.8 Y5.44 Z0.3 F1920.0 E9222.384
G1 X-37.35 Y5.3 Z0.3 F1920.0 E9223.163
G1 X-36.53 Y6.12 Z0.3 F1920.0 E9225.06
G1 X-36.08 Y5.98 Z0.3 F1920.0 E9225.841
G1 X-36.9 Y5.16 Z0.3 F1920.0 E9227.744
G1 X-36.44 Y5.03 Z0.3 F1920.0 E9228.523
G1 X-35.62 Y5.85 Z0.3 F1920.0 E9230.43
G1 X-35.16 Y5.71 Z0.3 F1920.0 E9231.212
G1 X-35.99 Y4.89 Z0.3 F1920.0 E9233.125
G1 X-35.53 Y4.75 Z0.3 F1920.0 E9233.905
G1 X-34.71 Y5.58 Z0.3 F1920.0 E9235.821
G1 X-34.25 Y5.44 Z0.3 F1920.0 E9236.603
G1 X-35.08 Y4.61 Z0.3 F1920.0 E9238.522
G1 X-34.62 Y4.47 Z0.3 F1920.0 E9239.301
G1 X-33.8 Y5.3 Z0.3 F1920.0 E9241.226
G1 X-33.34 Y5.17 Z0.3 F1920.0 E9242.007
G1 X-34.17 Y4.34 Z0.3 F1920.0 E9243.937
G1 X-33.72 Y4.2 Z0.3 F1920.0 E9244.716
G1 X-21.96 Y15.96 Z0.3 F1920.0 E9272.025
;M103
G1 X-21.14 Y16.78 Z0.3 F2880.0
;M101
G1 X-20.35 Y17.57 Z0.3 F1920.0 E9273.864
G1 X-20.46 Y18.04 Z0.3 F1920.0 E9274.666
G1 X-21.26 Y17.24 Z0.3 F1920.0 E9276.526
G1 X-21.39 Y17.71 Z0.3 F1920.0 E9277.317
G1 X-20.58 Y18.52 Z0.3 F1920.0 E9279.198
G1 X-20.7 Y18.99 Z0.3 F1920.0 E9280.0
G1 X-21.52 Y18.17 Z0.3 F1920.0 E9281.902
G1 X-21.65 Y18.64 Z0.3 F1920.0 E9282.695
G1 X-20.82 Y19.46 Z0.3 F1920.0 E9284.615
G1 X-20.94 Y19.94 Z0.3 F1920.0 E9285.418
G1 X-21.77 Y19.1 Z0.3 F1920.0 E9287.362
G1 X-21.9 Y19.57 Z0.3 F1920.0 E9288.153
G1 X-21.05 Y20.41 Z0.3 F1920.0 E9290.118
G1 X-21.17 Y20.89 Z0.3 F1920.0 E9290.92
G1 X-22.03 Y20.03 Z0.3 F1920.0 E9292.905
G1 X-22.15 Y20.5 Z0.3 F1920.0 E9293.698
G1 X-21.29 Y21.36 Z0.3 F1920.0 E9295.702
G1 X-21.41 Y21.84 Z0.3 F1920.0 E9296.504
G1 X-22.28 Y20.96 Z0.3 F1920.0 E9298.529
G1 X-22.41 Y21.43 Z0.3 F1920.0 E9299.32
G1 X-21.53 Y22.31 Z0.3 F1920.0 E9301.366
G1 X-21.65 Y22.78 Z0.3 F1920.0 E9302.168
G1 X-22.54 Y21.89 Z0.3 F1920.0 E9304.233
G1 X-22.66 Y22.36 Z0.3 F1920.0 E9305.027
G1 X-21.76 Y23.26 Z0.3 F1920.0 E9307.113
G1 X-21.88 Y23.73 Z0.3 F1920.0 E9307.917
G1 X-22.79 Y22.82 Z0.3 F1920.0 E9310.025
G1 X-22.92 Y23.29 Z0.3 F1920.0 E9310.817
G1 X-22.0 Y24.21 Z0.3 F1920.0 E9312.946
G1 X-22.12 Y24.68 Z0.3 F1920.0 E9313.748
G1 X-23.04 Y23.75 Z0.3 F1920.0 E9315.897
G1 X-23.17 Y24.22 Z0.3 F1920.0 E9316.69
G1 X-22.24 Y25.15 Z0.3 F1920.0 E9318.859
G1 X-22.36 Y25.63 Z0.3 F1920.0 E9319.661
G1 X-23.3 Y24.69 Z0.3 F1920.0 E9321.851
G1 X-23.43 Y25.15 Z0.3 F1920.0 E9322.642
G1 X-22.47 Y26.1 Z0.3 F1920.0 E9324.852
G1 X-22.59 Y26.58 Z0.3 F1920.0 E9325.655
G1 X-23.55 Y25.62 Z0.3 F1920.0 E9327.886
G1 X-23.68 Y26.08 Z0.3 F1920.0 E9328.679
G1 X-22.71 Y27.05 Z0.3 F1920.0 E9330.93
G1 X-22.83 Y27.53 Z0.3 F1920.0 E9331.734
G1 X-23.81 Y26.55 Z0.3 F1920.0 E9334.007
G1 X-23.93 Y27.01 Z0.3 F1920.0 E9334.799
G1 X-22.95 Y28.0 Z0.3 F1920.0 E9337.093
G1 X-23.07 Y28.47 Z0.3 F1920.0 E9337.895
G1 X-24.06 Y27.48 Z0.3 F1920.0 E9340.209
G1 X-24.19 Y27.94 Z0.3 F1920.0 E9341.002
G1 X-23.18 Y28.95 Z0.3 F1920.0 E9343.336
G1 X-23.3 Y29.42 Z0.3 F1920.0 E9344.138
G1 X-24.32 Y28.41 Z0.3 F1920.0 E9346.492
G1 X-24.44 Y28.87 Z0.3 F1920.0 E9347.283
G1 X-23.42 Y29.9 Z0.3 F1920.0 E9349.659
G1 X-23.54 Y30.37 Z0.3 F1920.0 E9350.461
G1 X-24.57 Y29.34 Z0.3 F1920.0 E9352.858
G1 X-24.7 Y29.8 Z0.3 F1920.0 E9353.651
G1 X-23.66 Y30.84 Z0.3 F1920.0 E9356.067
G1 X-23.77 Y31.32 Z0.3 F1920.0 E9356.87
G1 X-24.82 Y30.27 Z0.3 F1920.0 E9359.308
G1 X-24.95 Y30.73 Z0.3 F1920.0 E9360.1
G1 X-23.89 Y31.79 Z0.3 F1920.0 E9362.559
G1 X-24.01 Y32.27 Z0.3 F1920.0 E9363.361
G1 X-25.08 Y31.2 Z0.3 F1920.0 E9365.84
G1 X-25.21 Y31.66 Z0.3 F1920.0 E9366.633
G1 X-24.13 Y32.74 Z0.3 F1920.0 E9369.131
G1 X-24.25 Y33.21 Z0.3 F1920.0 E9369.933
G1 X-25.33 Y32.13 Z0.3 F1920.0 E9372.452
G1 X-25.46 Y32.59 Z0.3 F1920.0 E9373.244
G1 X-24.37 Y33.69 Z0.3 F1920.0 E9375.786
G1 X-24.48 Y34.16 Z0.3 F1920.0 E9376.588
G1 X-25.59 Y33.06 Z0.3 F1920.0 E9379.149
G1 X-25.71 Y33.53 Z0.3 F1920.0 E9379.942
G1 X-24.9 Y34.34 Z0.3 F1920.0 E9381.833
G1 X-25.57 Y34.26 Z0.3 F1920.0 E9382.941
G1 X-25.84 Y33.99 Z0.3 F1920.0 E9383.572
;M103
G1 X-21.99 Y16.83 Z0.3 F3600.0
G1 X-23.25 Y16.28 Z0.3 F3600.0
G1 X-31.56 Y30.95 Z0.3 F3600.0
G1 X-32.16 Y30.63 Z0.3 F2880.0
;M101
G1 X-33.52 Y29.28 Z0.3 F1920.0 E9386.716
G1 X-33.74 Y29.65 Z0.3 F1920.0 E9387.425
G1 X-32.37 Y31.01 Z0.3 F1920.0 E9390.591
G1 X-32.58 Y31.39 Z0.3 F1920.0 E9391.306
G1 X-33.96 Y30.02 Z0.3 F1920.0 E9394.493
G1 X-34.18 Y30.39 Z0.3 F1920.0 E9395.204
G1 X-32.8 Y31.78 Z0.3 F1920.0 E9398.413
G1 X-33.01 Y32.16 Z0.3 F1920.0 E9399.129
G1 X-34.4 Y30.76 Z0.3 F1920.0 E9402.36
G1 X-34.62 Y31.14 Z0.3 F1920.0 E9403.07
G1 X-33.22 Y32.54 Z0.3 F1920.0 E9406.323
G1 X-33.43 Y32.92 Z0.3 F1920.0 E9407.039
G1 X-34.84 Y31.51 Z0.3 F1920.0 E9410.314
G1 X-35.06 Y31.88 Z0.3 F1920.0 E9411.024
G1 X-33.64 Y33.3 Z0.3 F1920.0 E9414.32
G1 X-33.85 Y33.68 Z0.3 F1920.0 E9415.033
G1 X-35.28 Y32.25 Z0.3 F1920.0 E9418.35
G1 X-35.5 Y32.62 Z0.3 F1920.0 E9419.059
G1 X-34.06 Y34.06 Z0.3 F1920.0 E9422.398
G1 X-34.28 Y34.44 Z0.3 F1920.0 E9423.113
G1 X-35.72 Y32.99 Z0.3 F1920.0 E9426.474
G1 X-35.94 Y33.37 Z0.3 F1920.0 E9427.183
G1 X-34.49 Y34.82 Z0.3 F1920.0 E9430.566
G1 X-34.7 Y35.2 Z0.3 F1920.0 E9431.282
G1 X-36.17 Y33.74 Z0.3 F1920.0 E9434.687
G1 X-36.39 Y34.11 Z0.3 F1920.0 E9435.395
G1 X-34.91 Y35.58 Z0.3 F1920.0 E9438.822
G1 X-35.12 Y35.97 Z0.3 F1920.0 E9439.538
G1 X-36.61 Y34.48 Z0.3 F1920.0 E9442.986
G1 X-36.83 Y34.85 Z0.3 F1920.0 E9443.697
G1 X-35.33 Y36.35 Z0.3 F1920.0 E9447.167
G1 X-35.54 Y36.73 Z0.3 F1920.0 E9447.883
G1 X-37.05 Y35.22 Z0.3 F1920.0 E9451.375
G1 X-37.27 Y35.6 Z0.3 F1920.0 E9452.085
G1 X-35.76 Y37.11 Z0.3 F1920.0 E9455.6
G1 X-35.97 Y37.49 Z0.3 F1920.0 E9456.315
G1 X-37.49 Y35.97 Z0.3 F1920.0 E9459.851
G1 X-37.71 Y36.34 Z0.3 F1920.0 E9460.561
G1 X-36.18 Y37.87 Z0.3 F1920.0 E9464.119
G1 X-36.39 Y38.25 Z0.3 F1920.0 E9464.834
G1 X-37.93 Y36.71 Z0.3 F1920.0 E9468.414
G1 X-38.15 Y37.08 Z0.3 F1920.0 E9469.125
G1 X-36.6 Y38.63 Z0.3 F1920.0 E9472.726
G1 X-36.81 Y39.01 Z0.3 F1920.0 E9473.441
G1 X-38.37 Y37.45 Z0.3 F1920.0 E9477.064
G1 X-38.59 Y37.82 Z0.3 F1920.0 E9477.773
G1 X-37.02 Y39.39 Z0.3 F1920.0 E9481.418
G1 X-37.24 Y39.78 Z0.3 F1920.0 E9482.134
G1 X-38.81 Y38.2 Z0.3 F1920.0 E9485.8
G1 X-39.03 Y38.57 Z0.3 F1920.0 E9486.509
G1 X-37.45 Y40.16 Z0.3 F1920.0 E9490.199
G1 X-37.66 Y40.54 Z0.3 F1920.0 E9490.915
G1 X-39.26 Y38.94 Z0.3 F1920.0 E9494.625
G1 X-39.48 Y39.31 Z0.3 F1920.0 E9495.336
G1 X-37.87 Y40.92 Z0.3 F1920.0 E9499.068
G1 X-38.08 Y41.3 Z0.3 F1920.0 E9499.783
G1 X-39.7 Y39.68 Z0.3 F1920.0 E9503.538
G1 X-39.92 Y40.05 Z0.3 F1920.0 E9504.248
G1 X-38.29 Y41.68 Z0.3 F1920.0 E9508.024
G1 X-38.5 Y42.06 Z0.3 F1920.0 E9508.739
G1 X-40.14 Y40.42 Z0.3 F1920.0 E9512.538
G1 X-40.36 Y40.8 Z0.3 F1920.0 E9513.248
G1 X-38.72 Y42.44 Z0.3 F1920.0 E9517.068
G1 X-38.93 Y42.82 Z0.3 F1920.0 E9517.783
G1 X-40.58 Y41.17 Z0.3 F1920.0 E9521.626
G1 X-40.8 Y41.54 Z0.3 F1920.0 E9522.335
G1 X-39.14 Y43.2 Z0.3 F1920.0 E9526.199
G1 X-39.35 Y43.59 Z0.3 F1920.0 E9526.915
G1 X-41.02 Y41.91 Z0.3 F1920.0 E9530.8
G1 X-41.24 Y42.28 Z0.3 F1920.0 E9531.509
G1 X-39.56 Y43.97 Z0.3 F1920.0 E9535.417
G1 X-39.77 Y44.35 Z0.3 F1920.0 E9536.132
G1 X-41.46 Y42.66 Z0.3 F1920.0 E9540.061
G1 X-41.69 Y43.03 Z0.3 F1920.0 E9540.77
G1 X-39.98 Y44.73 Z0.3 F1920.0 E9544.722
G1 X-40.19 Y45.11 Z0.3 F1920.0 E9545.437
G1 X-41.91 Y43.4 Z0.3 F1920.0 E9549.41
G1 X-42.13 Y43.77 Z0.3 F1920.0 E9550.119
G1 X-40.41 Y45.49 Z0.3 F1920.0 E9554.114
G1 X-40.62 Y45.87 Z0.3 F1920.0 E9554.829
G1 X-42.35 Y44.14 Z0.3 F1920.0 E9558.846
G1 X-42.57 Y44.51 Z0.3 F1920.0 E9559.557
G1 X-40.83 Y46.25 Z0.3 F1920.0 E9563.594
G1 X-41.04 Y46.63 Z0.3 F1920.0 E9564.31
G1 X-42.79 Y44.88 Z0.3 F1920.0 E9568.371
G1 X-43.01 Y45.26 Z0.3 F1920.0 E9569.08
G1 X-41.25 Y47.01 Z0.3 F1920.0 E9573.162
;M103
G1 X-42.27 Y46.59 Z0.3 F2880.0
;M101
G1 X-43.23 Y45.63 Z0.3 F1920.0 E9575.399
;M103
G1 X-31.95 Y30.25 Z0.3 F2880.0
;M101
G1 X-33.29 Y28.91 Z0.3 F1920.0 E9578.521
G1 X-33.07 Y28.54 Z0.3 F1920.0 E9579.23
G1 X-31.74 Y29.87 Z0.3 F1920.0 E9582.33
G1 X-31.53 Y29.49 Z0.3 F1920.0 E9583.045
G1 X-32.85 Y28.16 Z0.3 F1920.0 E9586.123
G1 X-32.63 Y27.79 Z0.3 F1920.0 E9586.831
G1 X-31.32 Y29.11 Z0.3 F1920.0 E9589.887
G1 X-31.1 Y28.73 Z0.3 F1920.0 E9590.603
G1 X-32.41 Y27.42 Z0.3 F1920.0 E9593.638
G1 X-32.19 Y27.05 Z0.3 F1920.0 E9594.348
G1 X-30.89 Y28.35 Z0.3 F1920.0 E9597.361
G1 X-30.68 Y27.97 Z0.3 F1920.0 E9598.077
G1 X-31.97 Y26.68 Z0.3 F1920.0 E9601.067
G1 X-31.75 Y26.31 Z0.3 F1920.0 E9601.778
G1 X-30.47 Y27.58 Z0.3 F1920.0 E9604.746
G1 X-30.26 Y27.2 Z0.3 F1920.0 E9605.461
G1 X-31.53 Y25.93 Z0.3 F1920.0 E9608.408
G1 X-31.31 Y25.56 Z0.3 F1920.0 E9609.118
G1 X-30.05 Y26.82 Z0.3 F1920.0 E9612.044
G1 X-29.84 Y26.44 Z0.3 F1920.0 E9612.759
G1 X-31.09 Y25.19 Z0.3 F1920.0 E9615.662
G1 X-30.87 Y24.82 Z0.3 F1920.0 E9616.372
G1 X-29.62 Y26.06 Z0.3 F1920.0 E9619.254
G1 X-29.41 Y25.68 Z0.3 F1920.0 E9619.969
G1 X-30.64 Y24.45 Z0.3 F1920.0 E9622.828
G1 X-30.42 Y24.08 Z0.3 F1920.0 E9623.536
G1 X-29.2 Y25.3 Z0.3 F1920.0 E9626.374
G1 X-28.99 Y24.92 Z0.3 F1920.0 E9627.09
G1 X-30.2 Y23.7 Z0.3 F1920.0 E9629.906
G1 X-29.98 Y23.33 Z0.3 F1920.0 E9630.615
G1 X-28.78 Y24.54 Z0.3 F1920.0 E9633.409
G1 X-28.57 Y24.16 Z0.3 F1920.0 E9634.124
G1 X-29.76 Y22.96 Z0.3 F1920.0 E9636.897
G1 X-29.54 Y22.59 Z0.3 F1920.0 E9637.607
G1 X-28.36 Y23.77 Z0.3 F1920.0 E9640.358
G1 X-28.15 Y23.39 Z0.3 F1920.0 E9641.073
G1 X-29.32 Y22.22 Z0.3 F1920.0 E9643.801
G1 X-29.1 Y21.85 Z0.3 F1920.0 E9644.511
G1 X-27.93 Y23.01 Z0.3 F1920.0 E9647.219
G1 X-27.72 Y22.63 Z0.3 F1920.0 E9647.934
G1 X-28.88 Y21.48 Z0.3 F1920.0 E9650.618
G1 X-28.66 Y21.1 Z0.3 F1920.0 E9651.329
G1 X-27.51 Y22.25 Z0.3 F1920.0 E9653.992
G1 X-27.3 Y21.87 Z0.3 F1920.0 E9654.707
G1 X-28.44 Y20.73 Z0.3 F1920.0 E9657.347
G1 X-28.22 Y20.36 Z0.3 F1920.0 E9658.057
G1 X-27.09 Y21.49 Z0.3 F1920.0 E9660.677
G1 X-26.88 Y21.11 Z0.3 F1920.0 E9661.392
G1 X-28.0 Y19.99 Z0.3 F1920.0 E9663.99
G1 X-27.77 Y19.62 Z0.3 F1920.0 E9664.699
G1 X-26.67 Y20.73 Z0.3 F1920.0 E9667.274
G1 X-26.45 Y20.35 Z0.3 F1920.0 E9667.99
G1 X-27.55 Y19.25 Z0.3 F1920.0 E9670.544
G1 X-27.33 Y18.87 Z0.3 F1920.0 E9671.253
G1 X-26.24 Y19.96 Z0.3 F1920.0 E9673.784
G1 X-26.03 Y19.58 Z0.3 F1920.0 E9674.5
G1 X-27.11 Y18.5 Z0.3 F1920.0 E9677.011
G1 X-26.89 Y18.13 Z0.3 F1920.0 E9677.72
G1 X-25.82 Y19.2 Z0.3 F1920.0 E9680.208
G1 X-25.61 Y18.82 Z0.3 F1920.0 E9680.924
G1 X-26.67 Y17.76 Z0.3 F1920.0 E9683.389
G1 X-26.45 Y17.39 Z0.3 F1920.0 E9684.1
G1 X-25.4 Y18.44 Z0.3 F1920.0 E9686.545
G1 X-25.19 Y18.06 Z0.3 F1920.0 E9687.26
G1 X-26.23 Y17.02 Z0.3 F1920.0 E9689.682
G1 X-26.01 Y16.64 Z0.3 F1920.0 E9690.392
G1 X-24.97 Y17.68 Z0.3 F1920.0 E9692.793
G1 X-24.76 Y17.3 Z0.3 F1920.0 E9693.508
G1 X-25.79 Y16.27 Z0.3 F1920.0 E9695.887
G1 X-25.57 Y15.9 Z0.3 F1920.0 E9696.597
G1 X-24.55 Y16.92 Z0.3 F1920.0 E9698.954
G1 X-24.34 Y16.54 Z0.3 F1920.0 E9699.67
G1 X-25.35 Y15.53 Z0.3 F1920.0 E9702.006
G1 X-25.12 Y15.16 Z0.3 F1920.0 E9702.715
G1 X-24.13 Y16.15 Z0.3 F1920.0 E9705.028
G1 X-23.92 Y15.77 Z0.3 F1920.0 E9705.744
G1 X-24.9 Y14.79 Z0.3 F1920.0 E9708.035
;M103
G1 X-28.75 Y12.13 Z0.3 F2880.0
;M101
G1 X-27.9 Y12.97 Z0.3 F1920.0 E9709.996
G1 X-28.19 Y13.27 Z0.3 F1920.0 E9710.685
G1 X-29.04 Y12.43 Z0.3 F1920.0 E9712.642
G1 X-29.33 Y12.73 Z0.3 F1920.0 E9713.33
G1 X-28.48 Y13.58 Z0.3 F1920.0 E9715.287
G1 X-28.77 Y13.88 Z0.3 F1920.0 E9715.976
G1 X-29.62 Y13.04 Z0.3 F1920.0 E9717.931
G1 X-29.9 Y13.34 Z0.3 F1920.0 E9718.62
G1 X-29.06 Y14.18 Z0.3 F1920.0 E9720.574
G1 X-29.35 Y14.49 Z0.3 F1920.0 E9721.262
G1 X-30.19 Y13.64 Z0.3 F1920.0 E9723.214
G1 X-30.48 Y13.95 Z0.3 F1920.0 E9723.902
G1 X-29.64 Y14.79 Z0.3 F1920.0 E9725.853
G1 X-29.93 Y15.09 Z0.3 F1920.0 E9726.54
G1 X-30.77 Y14.25 Z0.3 F1920.0 E9728.491
G1 X-31.06 Y14.56 Z0.3 F1920.0 E9729.18
G1 X-30.22 Y15.39 Z0.3 F1920.0 E9731.128
G1 X-30.51 Y15.7 Z0.3 F1920.0 E9731.815
G1 X-31.35 Y14.86 Z0.3 F1920.0 E9733.761
G1 X-31.64 Y15.16 Z0.3 F1920.0 E9734.448
G1 X-30.8 Y16.0 Z0.3 F1920.0 E9736.393
G1 X-31.09 Y16.3 Z0.3 F1920.0 E9737.081
G1 X-31.93 Y15.47 Z0.3 F1920.0 E9739.024
G1 X-32.21 Y15.77 Z0.3 F1920.0 E9739.712
G1 X-31.38 Y16.61 Z0.3 F1920.0 E9741.652
G1 X-31.67 Y16.91 Z0.3 F1920.0 E9742.339
G1 X-32.5 Y16.07 Z0.3 F1920.0 E9744.279
G1 X-32.79 Y16.38 Z0.3 F1920.0 E9744.968
G1 X-31.96 Y17.21 Z0.3 F1920.0 E9746.907
G1 X-32.25 Y17.51 Z0.3 F1920.0 E9747.594
G1 X-33.08 Y16.68 Z0.3 F1920.0 E9749.529
G1 X-33.37 Y16.98 Z0.3 F1920.0 E9750.216
G1 X-32.53 Y17.82 Z0.3 F1920.0 E9752.15
G1 X-32.83 Y18.12 Z0.3 F1920.0 E9752.839
G1 X-33.66 Y17.29 Z0.3 F1920.0 E9754.771
G1 X-33.95 Y17.59 Z0.3 F1920.0 E9755.458
G1 X-33.11 Y18.42 Z0.3 F1920.0 E9757.39
G1 X-33.4 Y18.73 Z0.3 F1920.0 E9758.079
G1 X-34.24 Y17.9 Z0.3 F1920.0 E9760.008
G1 X-34.52 Y18.2 Z0.3 F1920.0 E9760.696
G1 X-33.69 Y19.03 Z0.3 F1920.0 E9762.623
G1 X-33.98 Y19.33 Z0.3 F1920.0 E9763.31
G1 X-34.81 Y18.5 Z0.3 F1920.0 E9765.238
G1 X-35.1 Y18.81 Z0.3 F1920.0 E9765.926
G1 X-34.27 Y19.64 Z0.3 F1920.0 E9767.851
G1 X-34.56 Y19.94 Z0.3 F1920.0 E9768.539
G1 X-35.39 Y19.11 Z0.3 F1920.0 E9770.462
G1 X-35.68 Y19.41 Z0.3 F1920.0 E9771.149
G1 X-34.85 Y20.24 Z0.3 F1920.0 E9773.07
G1 X-35.14 Y20.54 Z0.3 F1920.0 E9773.758
G1 X-35.97 Y19.72 Z0.3 F1920.0 E9775.678
G1 X-36.26 Y20.02 Z0.3 F1920.0 E9776.367
G1 X-35.43 Y20.85 Z0.3 F1920.0 E9778.285
G1 X-35.72 Y21.15 Z0.3 F1920.0 E9778.972
G1 X-36.55 Y20.32 Z0.3 F1920.0 E9780.89
G1 X-36.83 Y20.63 Z0.3 F1920.0 E9781.578
G1 X-36.01 Y21.45 Z0.3 F1920.0 E9783.493
G1 X-36.3 Y21.76 Z0.3 F1920.0 E9784.182
G1 X-37.12 Y20.93 Z0.3 F1920.0 E9786.095
G1 X-37.41 Y21.24 Z0.3 F1920.0 E9786.783
G1 X-36.59 Y22.06 Z0.3 F1920.0 E9788.696
G1 X-36.88 Y22.36 Z0.3 F1920.0 E9789.384
G1 X-37.7 Y21.54 Z0.3 F1920.0 E9791.295
G1 X-37.99 Y21.84 Z0.3 F1920.0 E9791.982
G1 X-37.17 Y22.67 Z0.3 F1920.0 E9793.892
G1 X-37.46 Y22.97 Z0.3 F1920.0 E9794.58
G1 X-38.28 Y22.15 Z0.3 F1920.0 E9796.488
G1 X-38.57 Y22.45 Z0.3 F1920.0 E9797.176
G1 X-37.74 Y23.27 Z0.3 F1920.0 E9799.083
G1 X-38.03 Y23.57 Z0.3 F1920.0 E9799.769
G1 X-38.85 Y22.75 Z0.3 F1920.0 E9801.674
G1 X-39.14 Y23.06 Z0.3 F1920.0 E9802.362
G1 X-38.32 Y23.88 Z0.3 F1920.0 E9804.263
G1 X-38.61 Y24.18 Z0.3 F1920.0 E9804.951
G1 X-39.43 Y23.36 Z0.3 F1920.0 E9806.852
G1 X-39.72 Y23.66 Z0.3 F1920.0 E9807.539
G1 X-38.9 Y24.48 Z0.3 F1920.0 E9809.438
G1 X-39.19 Y24.79 Z0.3 F1920.0 E9810.126
G1 X-40.01 Y23.97 Z0.3 F1920.0 E9812.024
G1 X-40.3 Y24.27 Z0.3 F1920.0 E9812.712
G1 X-39.48 Y25.09 Z0.3 F1920.0 E9814.606
G1 X-39.77 Y25.39 Z0.3 F1920.0 E9815.294
G1 X-40.59 Y24.58 Z0.3 F1920.0 E9817.189
G1 X-40.88 Y24.88 Z0.3 F1920.0 E9817.877
G1 X-40.06 Y25.69 Z0.3 F1920.0 E9819.77
;M103
G1 X-29.57 Y11.82 Z0.3 F3600.0
G1 X-30.6 Y10.44 Z0.3 F3600.0
G1 X-33.68 Y12.17 Z0.3 F3600.0
G1 X-31.46 Y8.23 Z0.3 F2880.0
;M101
G1 X-27.33 Y12.36 Z0.3 F1920.0 E9829.379
G1 X-27.62 Y12.67 Z0.3 F1920.0 E9830.068
G1 X-28.85 Y11.43 Z0.3 F1920.0 E9832.935
;M103
G1 X-31.84 Y8.44 Z0.3 F2880.0
;M101
G1 X-30.74 Y9.55 Z0.3 F1920.0 E9835.5
G1 X-31.1 Y9.77 Z0.3 F1920.0 E9836.206
G1 X-32.22 Y8.66 Z0.3 F1920.0 E9838.793
G1 X-32.59 Y8.88 Z0.3 F1920.0 E9839.506
G1 X-31.47 Y10.0 Z0.3 F1920.0 E9842.116
G1 X-31.83 Y10.23 Z0.3 F1920.0 E9842.822
G1 X-32.97 Y9.09 Z0.3 F1920.0 E9845.453
G1 X-33.34 Y9.31 Z0.3 F1920.0 E9846.165
G1 X-32.2 Y10.45 Z0.3 F1920.0 E9848.819
G1 X-32.57 Y10.68 Z0.3 F1920.0 E9849.526
G1 X-33.72 Y9.53 Z0.3 F1920.0 E9852.2
G1 X-34.09 Y9.74 Z0.3 F1920.0 E9852.913
G1 X-32.93 Y10.91 Z0.3 F1920.0 E9855.61
G1 X-33.3 Y11.13 Z0.3 F1920.0 E9856.317
G1 X-34.47 Y9.96 Z0.3 F1920.0 E9859.038
G1 X-34.84 Y10.18 Z0.3 F1920.0 E9859.75
G1 X-33.66 Y11.36 Z0.3 F1920.0 E9862.493
G1 X-34.03 Y11.58 Z0.3 F1920.0 E9863.199
G1 X-35.22 Y10.39 Z0.3 F1920.0 E9865.963
G1 X-35.6 Y10.61 Z0.3 F1920.0 E9866.674
G1 X-34.4 Y11.81 Z0.3 F1920.0 E9869.461
G1 X-34.76 Y12.04 Z0.3 F1920.0 E9870.167
G1 X-35.97 Y10.83 Z0.3 F1920.0 E9872.975
G1 X-36.35 Y11.05 Z0.3 F1920.0 E9873.687
G1 X-35.13 Y12.26 Z0.3 F1920.0 E9876.517
G1 X-35.49 Y12.49 Z0.3 F1920.0 E9877.224
G1 X-36.72 Y11.26 Z0.3 F1920.0 E9880.077
G1 X-37.1 Y11.48 Z0.3 F1920.0 E9880.789
G1 X-35.86 Y12.72 Z0.3 F1920.0 E9883.663
G1 X-36.23 Y12.94 Z0.3 F1920.0 E9884.37
G1 X-37.47 Y11.7 Z0.3 F1920.0 E9887.268
G1 X-37.85 Y11.91 Z0.3 F1920.0 E9887.98
G1 X-36.59 Y13.17 Z0.3 F1920.0 E9890.898
G1 X-36.96 Y13.4 Z0.3 F1920.0 E9891.605
G1 X-38.22 Y12.13 Z0.3 F1920.0 E9894.547
G1 X-38.6 Y12.35 Z0.3 F1920.0 E9895.259
G1 X-37.32 Y13.62 Z0.3 F1920.0 E9898.221
G1 X-37.69 Y13.85 Z0.3 F1920.0 E9898.928
G1 X-38.98 Y12.56 Z0.3 F1920.0 E9901.914
G1 X-39.35 Y12.78 Z0.3 F1920.0 E9902.627
G1 X-38.06 Y14.08 Z0.3 F1920.0 E9905.636
G1 X-38.42 Y14.3 Z0.3 F1920.0 E9906.342
G1 X-39.73 Y13.0 Z0.3 F1920.0 E9909.372
G1 X-40.1 Y13.21 Z0.3 F1920.0 E9910.085
G1 X-38.79 Y14.53 Z0.3 F1920.0 E9913.138
G1 X-39.15 Y14.75 Z0.3 F1920.0 E9913.845
G1 X-40.48 Y13.43 Z0.3 F1920.0 E9916.919
G1 X-40.85 Y13.65 Z0.3 F1920.0 E9917.632
G1 X-39.52 Y14.98 Z0.3 F1920.0 E9920.728
G1 X-39.89 Y15.21 Z0.3 F1920.0 E9921.435
G1 X-41.23 Y13.86 Z0.3 F1920.0 E9924.554
G1 X-41.6 Y14.08 Z0.3 F1920.0 E9925.265
G1 X-40.25 Y15.43 Z0.3 F1920.0 E9928.407
G1 X-40.62 Y15.66 Z0.3 F1920.0 E9929.113
G1 X-41.98 Y14.3 Z0.3 F1920.0 E9932.276
G1 X-42.36 Y14.51 Z0.3 F1920.0 E9932.989
G1 X-40.98 Y15.89 Z0.3 F1920.0 E9936.174
G1 X-41.35 Y16.11 Z0.3 F1920.0 E9936.881
G1 X-42.73 Y14.73 Z0.3 F1920.0 E9940.087
G1 X-43.11 Y14.95 Z0.3 F1920.0 E9940.8
G1 X-41.72 Y16.34 Z0.3 F1920.0 E9944.03
G1 X-42.08 Y16.57 Z0.3 F1920.0 E9944.736
G1 X-43.48 Y15.17 Z0.3 F1920.0 E9947.987
G1 X-43.86 Y15.38 Z0.3 F1920.0 E9948.699
G1 X-42.45 Y16.79 Z0.3 F1920.0 E9951.973
G1 X-42.81 Y17.02 Z0.3 F1920.0 E9952.68
G1 X-44.23 Y15.6 Z0.3 F1920.0 E9955.977
G1 X-44.61 Y15.82 Z0.3 F1920.0 E9956.689
G1 X-43.18 Y17.24 Z0.3 F1920.0 E9960.007
G1 X-43.55 Y17.47 Z0.3 F1920.0 E9960.714
G1 X-44.98 Y16.03 Z0.3 F1920.0 E9964.055
G1 X-45.36 Y16.25 Z0.3 F1920.0 E9964.766
G1 X-43.91 Y17.7 Z0.3 F1920.0 E9968.129
G1 X-44.28 Y17.92 Z0.3 F1920.0 E9968.835
G1 X-45.74 Y16.47 Z0.3 F1920.0 E9972.219
G1 X-46.11 Y16.68 Z0.3 F1920.0 E9972.93
G1 X-44.64 Y18.15 Z0.3 F1920.0 E9976.337
G1 X-45.01 Y18.38 Z0.3 F1920.0 E9977.043
G1 X-46.49 Y16.9 Z0.3 F1920.0 E9980.473
G1 X-46.86 Y17.12 Z0.3 F1920.0 E9981.184
G1 X-45.38 Y18.6 Z0.3 F1920.0 E9984.636
G1 X-45.74 Y18.83 Z0.3 F1920.0 E9985.342
G1 X-47.24 Y17.33 Z0.3 F1920.0 E9988.816
G1 X-47.61 Y17.55 Z0.3 F1920.0 E9989.527
G1 X-46.11 Y19.06 Z0.3 F1920.0 E9993.022
G1 X-46.47 Y19.28 Z0.3 F1920.0 E9993.729
G1 X-47.99 Y17.77 Z0.3 F1920.0 E9997.247
G1 X-48.36 Y17.98 Z0.3 F1920.0 E9997.959
G1 X-46.84 Y19.51 Z0.3 F1920.0 E10001.5
G1 X-47.21 Y19.74 Z0.3 F1920.0 E10002.207
G1 X-48.74 Y18.2 Z0.3 F1920.0 E10005.77
G1 X-49.12 Y18.42 Z0.3 F1920.0 E10006.482
G1 X-47.57 Y19.96 Z0.3 F1920.0 E10010.068
G1 X-47.94 Y20.19 Z0.3 F1920.0 E10010.774
G1 X-49.49 Y18.63 Z0.3 F1920.0 E10014.38
G1 X-49.87 Y18.85 Z0.3 F1920.0 E10015.093
G1 X-48.3 Y20.41 Z0.3 F1920.0 E10018.722
G1 X-48.67 Y20.64 Z0.3 F1920.0 E10019.428
G1 X-50.24 Y19.07 Z0.3 F1920.0 E10023.078
G1 X-50.62 Y19.29 Z0.3 F1920.0 E10023.791
G1 X-49.04 Y20.87 Z0.3 F1920.0 E10027.463
G1 X-49.4 Y21.09 Z0.3 F1920.0 E10028.17
G1 X-50.99 Y19.5 Z0.3 F1920.0 E10031.866
G1 X-51.37 Y19.72 Z0.3 F1920.0 E10032.579
G1 X-49.77 Y21.32 Z0.3 F1920.0 E10036.296
G1 X-50.13 Y21.55 Z0.3 F1920.0 E10037.003
G1 X-51.74 Y19.93 Z0.3 F1920.0 E10040.743
G1 X-52.12 Y20.15 Z0.3 F1920.0 E10041.455
G1 X-50.5 Y21.77 Z0.3 F1920.0 E10045.217
G1 X-50.87 Y22.0 Z0.3 F1920.0 E10045.923
G1 X-52.5 Y20.37 Z0.3 F1920.0 E10049.707
G1 X-52.87 Y20.59 Z0.3 F1920.0 E10050.418
G1 X-51.23 Y22.23 Z0.3 F1920.0 E10054.224
G1 X-51.6 Y22.45 Z0.3 F1920.0 E10054.93
G1 X-53.25 Y20.8 Z0.3 F1920.0 E10058.759
G1 X-53.62 Y21.02 Z0.3 F1920.0 E10059.47
G1 X-51.96 Y22.68 Z0.3 F1920.0 E10063.321
G1 X-52.33 Y22.9 Z0.3 F1920.0 E10064.028
G1 X-54.0 Y21.24 Z0.3 F1920.0 E10067.901
G1 X-54.37 Y21.45 Z0.3 F1920.0 E10068.612
G1 X-52.7 Y23.13 Z0.3 F1920.0 E10072.506
G1 X-53.06 Y23.36 Z0.3 F1920.0 E10073.213
G1 X-54.75 Y21.67 Z0.3 F1920.0 E10077.13
G1 X-55.12 Y21.89 Z0.3 F1920.0 E10077.842
G1 X-53.43 Y23.58 Z0.3 F1920.0 E10081.78
G1 X-53.79 Y23.81 Z0.3 F1920.0 E10082.487
G1 X-55.5 Y22.1 Z0.3 F1920.0 E10086.449
G1 X-55.87 Y22.32 Z0.3 F1920.0 E10087.161
G1 X-54.16 Y24.04 Z0.3 F1920.0 E10091.144
G1 X-54.53 Y24.26 Z0.3 F1920.0 E10091.85
G1 X-56.25 Y22.54 Z0.3 F1920.0 E10095.856
G1 X-56.63 Y22.75 Z0.3 F1920.0 E10096.568
G1 X-54.89 Y24.49 Z0.3 F1920.0 E10100.597
G1 X-55.26 Y24.72 Z0.3 F1920.0 E10101.303
G1 X-57.0 Y22.97 Z0.3 F1920.0 E10105.353
G1 X-57.38 Y23.19 Z0.3 F1920.0 E10106.065
G1 X-55.62 Y24.94 Z0.3 F1920.0 E10110.137
G1 X-55.99 Y25.17 Z0.3 F1920.0 E10110.844
G1 X-57.75 Y23.4 Z0.3 F1920.0 E10114.939
G1 X-58.13 Y23.62 Z0.3 F1920.0 E10115.652
G1 X-56.36 Y25.39 Z0.3 F1920.0 E10119.769
G1 X-56.72 Y25.62 Z0.3 F1920.0 E10120.476
G1 X-58.5 Y23.84 Z0.3 F1920.0 E10124.615
G1 X-58.88 Y24.06 Z0.3 F1920.0 E10125.327
G1 X-57.09 Y25.85 Z0.3 F1920.0 E10129.488
G1 X-57.45 Y26.07 Z0.3 F1920.0 E10130.195
G1 X-59.25 Y24.27 Z0.3 F1920.0 E10134.376
G1 X-59.63 Y24.49 Z0.3 F1920.0 E10135.089
G1 X-57.82 Y26.3 Z0.3 F1920.0 E10139.294
G1 X-58.19 Y26.53 Z0.3 F1920.0 E10140.001
G1 X-60.01 Y24.71 Z0.3 F1920.0 E10144.227
G1 X-60.38 Y24.92 Z0.3 F1920.0 E10144.938
G1 X-58.55 Y26.75 Z0.3 F1920.0 E10149.189
G1 X-58.92 Y26.98 Z0.3 F1920.0 E10149.895
G1 X-60.76 Y25.14 Z0.3 F1920.0 E10154.167
G1 X-61.13 Y25.36 Z0.3 F1920.0 E10154.879
G1 X-59.28 Y27.21 Z0.3 F1920.0 E10159.172
G1 X-59.65 Y27.43 Z0.3 F1920.0 E10159.879
G1 X-61.51 Y25.57 Z0.3 F1920.0 E10164.196
;M103
G1 X-61.12 Y26.55 Z0.3 F2880.0
;M101
G1 X-60.02 Y27.66 Z0.3 F1920.0 E10166.772
G1 X-60.38 Y27.89 Z0.3 F1920.0 E10167.479
G1 X-60.54 Y27.72 Z0.3 F1920.0 E10167.852
;M103
G1 X-39.22 Y11.91 Z0.3 F3600.0
G1 X-32.46 Y7.85 Z0.3 F3600.0
G1 X-32.79 Y6.75 Z0.3 F3600.0
G1 X-32.25 Y6.25 Z0.3 F2880.0
;M101
G1 X-31.81 Y7.29 Z0.3 F1920.0 E10169.702
G1 X-23.71 Y15.39 Z0.3 F1920.0 E10188.52
G1 X-23.03 Y15.47 Z0.3 F1920.0 E10189.629
G1 X-31.46 Y7.05 Z0.3 F1920.0 E10209.184
;M103
G1 X-19.99 Y16.15 Z0.3 F2880.0
;M101
G1 X-33.16 Y2.98 Z0.3 F1920.0 E10239.761
G1 X-33.24 Y3.49 Z0.3 F1920.0 E10240.615
G1 X-20.11 Y16.62 Z0.3 F1920.0 E10271.1
G1 X-20.23 Y17.09 Z0.3 F1920.0 E10271.902
G1 X-33.32 Y4.01 Z0.3 F1920.0 E10302.294
;M103
G1 X-33.08 Y2.46 Z0.3 F2880.0
;M101
G1 X-19.36 Y16.18 Z0.3 F1920.0 E10334.154
G1 X-18.61 Y16.34 Z0.3 F1920.0 E10335.41
G1 X-33.01 Y1.94 Z0.3 F1920.0 E10368.841
G1 X-32.99 Y1.36 Z0.3 F1920.0 E10369.793
G1 X-17.86 Y16.5 Z0.3 F1920.0 E10404.931
;M103
G1 X-16.95 Y17.41 Z0.3 F2880.0
;M101
G1 X-15.58 Y18.78 Z0.3 F1920.0 E10408.116
G1 X-15.57 Y19.39 Z0.3 F1920.0 E10409.113
G1 X-16.97 Y17.99 Z0.3 F1920.0 E10412.361
G1 X-16.98 Y18.57 Z0.3 F1920.0 E10413.312
G1 X-15.55 Y19.99 Z0.3 F1920.0 E10416.623
G1 X-15.54 Y20.6 Z0.3 F1920.0 E10417.62
G1 X-16.99 Y19.15 Z0.3 F1920.0 E10420.994
G1 X-17.0 Y19.72 Z0.3 F1920.0 E10421.945
G1 X-15.52 Y21.21 Z0.3 F1920.0 E10425.384
G1 X-15.51 Y21.81 Z0.3 F1920.0 E10426.379
G1 X-17.02 Y20.3 Z0.3 F1920.0 E10429.88
G1 X-17.03 Y20.88 Z0.3 F1920.0 E10430.833
G1 X-15.5 Y22.42 Z0.3 F1920.0 E10434.397
G1 X-15.48 Y23.02 Z0.3 F1920.0 E10435.392
G1 X-17.04 Y21.46 Z0.3 F1920.0 E10439.019
G1 X-17.06 Y22.04 Z0.3 F1920.0 E10439.97
G1 X-15.47 Y23.63 Z0.3 F1920.0 E10443.662
G1 X-15.45 Y24.24 Z0.3 F1920.0 E10444.659
G1 X-17.07 Y22.62 Z0.3 F1920.0 E10448.414
G1 X-17.08 Y23.2 Z0.3 F1920.0 E10449.364
G1 X-15.44 Y24.84 Z0.3 F1920.0 E10453.182
G1 X-15.42 Y25.45 Z0.3 F1920.0 E10454.179
G1 X-17.1 Y23.78 Z0.3 F1920.0 E10458.059
G1 X-17.11 Y24.36 Z0.3 F1920.0 E10459.009
G1 X-15.41 Y26.06 Z0.3 F1920.0 E10462.954
G1 X-15.4 Y26.66 Z0.3 F1920.0 E10463.95
G1 X-17.12 Y24.94 Z0.3 F1920.0 E10467.957
G1 X-17.13 Y25.52 Z0.3 F1920.0 E10468.91
G1 X-15.38 Y27.27 Z0.3 F1920.0 E10472.98
G1 X-15.37 Y27.88 Z0.3 F1920.0 E10473.977
G1 X-17.15 Y26.1 Z0.3 F1920.0 E10478.113
G1 X-17.16 Y26.68 Z0.3 F1920.0 E10479.064
G1 X-15.35 Y28.48 Z0.3 F1920.0 E10483.262
G1 X-15.34 Y29.09 Z0.3 F1920.0 E10484.259
G1 X-17.17 Y27.26 Z0.3 F1920.0 E10488.519
G1 X-17.19 Y27.84 Z0.3 F1920.0 E10489.47
G1 X-15.32 Y29.7 Z0.3 F1920.0 E10493.795
G1 X-15.31 Y30.3 Z0.3 F1920.0 E10494.79
G1 X-17.2 Y28.41 Z0.3 F1920.0 E10499.179
G1 X-17.21 Y28.99 Z0.3 F1920.0 E10500.131
G1 X-15.3 Y30.91 Z0.3 F1920.0 E10504.582
G1 X-15.28 Y31.52 Z0.3 F1920.0 E10505.578
G1 X-17.23 Y29.57 Z0.3 F1920.0 E10510.092
G1 X-17.24 Y30.15 Z0.3 F1920.0 E10511.044
G1 X-15.27 Y32.12 Z0.3 F1920.0 E10515.621
G1 X-15.25 Y32.73 Z0.3 F1920.0 E10516.618
G1 X-17.25 Y30.73 Z0.3 F1920.0 E10521.259
G1 X-17.26 Y31.31 Z0.3 F1920.0 E10522.21
G1 X-15.24 Y33.34 Z0.3 F1920.0 E10526.914
G1 X-15.22 Y33.94 Z0.3 F1920.0 E10527.911
G1 X-17.28 Y31.89 Z0.3 F1920.0 E10532.678
G1 X-17.29 Y32.47 Z0.3 F1920.0 E10533.629
G1 X-15.21 Y34.55 Z0.3 F1920.0 E10538.46
G1 X-15.2 Y35.16 Z0.3 F1920.0 E10539.455
G1 X-17.3 Y33.05 Z0.3 F1920.0 E10544.35
G1 X-17.32 Y33.63 Z0.3 F1920.0 E10545.302
G1 X-15.18 Y35.76 Z0.3 F1920.0 E10550.26
G1 X-15.17 Y36.37 Z0.3 F1920.0 E10551.257
G1 X-17.33 Y34.21 Z0.3 F1920.0 E10556.278
G1 X-17.34 Y34.79 Z0.3 F1920.0 E10557.229
G1 X-15.15 Y36.98 Z0.3 F1920.0 E10562.313
G1 X-15.14 Y37.58 Z0.3 F1920.0 E10563.31
G1 X-17.36 Y35.37 Z0.3 F1920.0 E10568.458
G1 X-17.37 Y35.95 Z0.3 F1920.0 E10569.408
G1 X-15.12 Y38.19 Z0.3 F1920.0 E10574.62
G1 X-15.11 Y38.8 Z0.3 F1920.0 E10575.615
G1 X-17.38 Y36.53 Z0.3 F1920.0 E10580.888
G1 X-17.39 Y37.1 Z0.3 F1920.0 E10581.839
G1 X-15.1 Y39.4 Z0.3 F1920.0 E10587.176
G1 X-15.08 Y40.01 Z0.3 F1920.0 E10588.172
G1 X-17.41 Y37.68 Z0.3 F1920.0 E10593.573
G1 X-17.42 Y38.26 Z0.3 F1920.0 E10594.525
G1 X-15.07 Y40.62 Z0.3 F1920.0 E10599.99
G1 X-15.05 Y41.22 Z0.3 F1920.0 E10600.987
G1 X-17.43 Y38.84 Z0.3 F1920.0 E10606.515
G1 X-17.45 Y39.42 Z0.3 F1920.0 E10607.466
G1 X-15.04 Y41.83 Z0.3 F1920.0 E10613.058
G1 X-15.02 Y42.44 Z0.3 F1920.0 E10614.054
G1 X-17.46 Y40.0 Z0.3 F1920.0 E10619.71
G1 X-17.47 Y40.58 Z0.3 F1920.0 E10620.66
G1 X-15.01 Y43.04 Z0.3 F1920.0 E10626.379
G1 X-15.0 Y43.65 Z0.3 F1920.0 E10627.375
G1 X-17.49 Y41.16 Z0.3 F1920.0 E10633.156
G1 X-17.5 Y41.74 Z0.3 F1920.0 E10634.109
G1 X-14.98 Y44.26 Z0.3 F1920.0 E10639.954
G1 X-14.97 Y44.86 Z0.3 F1920.0 E10640.951
G1 X-17.51 Y42.32 Z0.3 F1920.0 E10646.861
G1 X-17.52 Y42.9 Z0.3 F1920.0 E10647.813
G1 X-14.95 Y45.47 Z0.3 F1920.0 E10653.784
G1 X-14.94 Y46.08 Z0.3 F1920.0 E10654.781
G1 X-17.54 Y43.48 Z0.3 F1920.0 E10660.816
G1 X-17.55 Y44.06 Z0.3 F1920.0 E10661.767
G1 X-14.92 Y46.68 Z0.3 F1920.0 E10667.867
G1 X-14.91 Y47.29 Z0.3 F1920.0 E10668.862
G1 X-17.56 Y44.64 Z0.3 F1920.0 E10675.023
G1 X-17.58 Y45.22 Z0.3 F1920.0 E10675.974
G1 X-14.9 Y47.9 Z0.3 F1920.0 E10682.199
G1 X-14.88 Y48.5 Z0.3 F1920.0 E10683.194
G1 X-17.59 Y45.8 Z0.3 F1920.0 E10689.482
G1 X-17.6 Y46.38 Z0.3 F1920.0 E10690.435
G1 X-14.87 Y49.11 Z0.3 F1920.0 E10696.787
G1 X-14.85 Y49.72 Z0.3 F1920.0 E10697.783
G1 X-17.62 Y46.95 Z0.3 F1920.0 E10704.199
G1 X-17.63 Y47.53 Z0.3 F1920.0 E10705.15
G1 X-14.84 Y50.32 Z0.3 F1920.0 E10711.628
G1 X-14.83 Y50.93 Z0.3 F1920.0 E10712.625
G1 X-17.64 Y48.11 Z0.3 F1920.0 E10719.166
G1 X-17.66 Y48.69 Z0.3 F1920.0 E10720.117
G1 X-14.81 Y51.54 Z0.3 F1920.0 E10726.723
G1 X-14.8 Y52.14 Z0.3 F1920.0 E10727.718
G1 X-17.67 Y49.27 Z0.3 F1920.0 E10734.386
G1 X-17.68 Y49.85 Z0.3 F1920.0 E10735.336
G1 X-14.78 Y52.75 Z0.3 F1920.0 E10742.068
G1 X-14.77 Y53.36 Z0.3 F1920.0 E10743.065
G1 X-17.69 Y50.43 Z0.3 F1920.0 E10749.86
G1 X-17.71 Y51.01 Z0.3 F1920.0 E10750.812
G1 X-14.75 Y53.96 Z0.3 F1920.0 E10757.67
G1 X-14.74 Y54.57 Z0.3 F1920.0 E10758.667
G1 X-17.72 Y51.59 Z0.3 F1920.0 E10765.589
G1 X-17.73 Y52.17 Z0.3 F1920.0 E10766.54
G1 X-15.12 Y54.78 Z0.3 F1920.0 E10772.605
G1 X-15.71 Y54.78 Z0.3 F1920.0 E10773.579
G1 X-17.75 Y52.75 Z0.3 F1920.0 E10778.297
G1 X-17.76 Y53.33 Z0.3 F1920.0 E10779.248
G1 X-16.31 Y54.78 Z0.3 F1920.0 E10782.621
G1 X-16.9 Y54.78 Z0.3 F1920.0 E10783.595
G1 X-17.77 Y53.91 Z0.3 F1920.0 E10785.623
G1 X-17.79 Y54.49 Z0.3 F1920.0 E10786.576
G1 X-17.49 Y54.78 Z0.3 F1920.0 E10787.256
;M103
G1 X-14.32 Y43.84 Z0.3 F3600.0
G1 X-14.79 Y17.49 Z0.3 F3600.0
G1 X-13.21 Y17.24 Z0.3 F3600.0
G1 X-9.74 Y31.15 Z0.3 F3600.0
G1 X-8.53 Y25.66 Z0.3 F3600.0
G1 X-10.68 Y16.82 Z0.3 F3600.0
G1 X-9.22 Y16.1 Z0.3 F3600.0
G1 X-6.53 Y20.87 Z0.3 F3600.0
G1 X-6.37 Y19.69 Z0.3 F2880.0
;M101
G1 X-1.99 Y24.08 Z0.3 F1920.0 E10797.447
G1 X-1.15 Y25.51 Z0.3 F1920.0 E10800.162
;M103
G1 X-1.74 Y23.17 Z0.3 F3600.0
G1 X-6.62 Y14.52 Z0.3 F3600.0
G1 X-5.21 Y13.57 Z0.3 F3600.0
G1 X-2.52 Y15.25 Z0.3 F2880.0
;M101
G1 X7.89 Y25.66 Z0.3 F1920.0 E10824.338
G1 X7.58 Y25.95 Z0.3 F1920.0 E10825.027
G1 X5.73 Y24.1 Z0.3 F1920.0 E10829.325
;M103
G1 X3.58 Y20.17 Z0.3 F2880.0
;M101
G1 X-30.27 Y-13.68 Z0.3 F1920.0 E10907.928
;M103
G1 X-2.55 Y9.3 Z0.3 F2880.0
;M101
G1 X-26.28 Y-14.43 Z0.3 F1920.0 E10963.027
G1 X-26.57 Y-14.13 Z0.3 F1920.0 E10963.716
G1 X-2.79 Y9.65 Z0.3 F1920.0 E11018.929
G1 X-3.03 Y10.0 Z0.3 F1920.0 E11019.629
G1 X-26.86 Y-13.83 Z0.3 F1920.0 E11074.958
G1 X-27.15 Y-13.53 Z0.3 F1920.0 E11075.647
G1 X-3.27 Y10.35 Z0.3 F1920.0 E11131.093
G1 X-3.51 Y10.7 Z0.3 F1920.0 E11131.793
G1 X-27.44 Y-13.22 Z0.3 F1920.0 E11187.353
;M103
G1 X-25.99 Y-14.73 Z0.3 F2880.0
;M101
G1 X-1.2 Y10.06 Z0.3 F1920.0 E11244.907
G1 X0.35 Y11.01 Z0.3 F1920.0 E11247.894
;M103
G1 X6.54 Y14.83 Z0.3 F2880.0
;M101
G1 X2.07 Y10.37 Z0.3 F1920.0 E11258.271
G1 X0.67 Y9.56 Z0.3 F1920.0 E11260.924
;M103
G1 X1.82 Y10.7 Z0.3 F2880.0
;M101
G1 X4.99 Y13.88 Z0.3 F1920.0 E11268.302
;M103
G1 X3.45 Y12.92 Z0.3 F2880.0
;M101
G1 X-0.73 Y8.75 Z0.3 F1920.0 E11277.991
;M103
G1 X-0.94 Y9.73 Z0.3 F2880.0
;M101
G1 X-25.7 Y-15.03 Z0.3 F1920.0 E11335.476
G1 X-25.4 Y-15.33 Z0.3 F1920.0 E11336.165
G1 X1.9 Y11.97 Z0.3 F1920.0 E11399.557
;M103
G1 X-37.04 Y-21.05 Z0.3 F2880.0
;M101
G1 X-4.24 Y11.76 Z0.3 F1920.0 E11475.73
;M103
G1 X-34.53 Y-1.49 Z0.3 F3600.0
G1 X-34.27 Y-1.63 Z0.3 F3600.0
G1 X-34.18 Y-3.97 Z0.3 F3600.0
G1 X-49.23 Y-8.35 Z0.3 F2880.0
;M101
G1 X-49.59 Y-8.72 Z0.3 F1920.0 E11476.575
G1 X-49.49 Y-9.21 Z0.3 F1920.0 E11477.397
G1 X-48.45 Y-8.17 Z0.3 F1920.0 E11479.804
G1 X-47.68 Y-7.99 Z0.3 F1920.0 E11481.112
G1 X-49.27 Y-9.59 Z0.3 F1920.0 E11484.825
G1 X-48.48 Y-9.38 Z0.3 F1920.0 E11486.172
G1 X-46.9 Y-7.8 Z0.3 F1920.0 E11489.839
G1 X-46.13 Y-7.62 Z0.3 F1920.0 E11491.146
G1 X-47.69 Y-9.18 Z0.3 F1920.0 E11494.768
G1 X-46.89 Y-8.98 Z0.3 F1920.0 E11496.116
G1 X-45.35 Y-7.44 Z0.3 F1920.0 E11499.691
G1 X-44.58 Y-7.26 Z0.3 F1920.0 E11500.999
G1 X-46.1 Y-8.77 Z0.3 F1920.0 E11504.527
G1 X-45.3 Y-8.57 Z0.3 F1920.0 E11505.874
G1 X-43.8 Y-7.07 Z0.3 F1920.0 E11509.356
G1 X-43.03 Y-6.89 Z0.3 F1920.0 E11510.664
G1 X-44.51 Y-8.37 Z0.3 F1920.0 E11514.1
G1 X-43.71 Y-8.17 Z0.3 F1920.0 E11515.447
G1 X-42.25 Y-6.71 Z0.3 F1920.0 E11518.837
G1 X-41.48 Y-6.52 Z0.3 F1920.0 E11520.145
G1 X-42.92 Y-7.96 Z0.3 F1920.0 E11523.488
G1 X-42.12 Y-7.76 Z0.3 F1920.0 E11524.835
G1 X-40.7 Y-6.34 Z0.3 F1920.0 E11528.135
G1 X-39.92 Y-6.16 Z0.3 F1920.0 E11529.442
G1 X-41.33 Y-7.56 Z0.3 F1920.0 E11532.695
G1 X-40.53 Y-7.36 Z0.3 F1920.0 E11534.042
G1 X-39.15 Y-5.98 Z0.3 F1920.0 E11537.248
G1 X-38.37 Y-5.79 Z0.3 F1920.0 E11538.555
G1 X-39.74 Y-7.15 Z0.3 F1920.0 E11541.715
G1 X-38.94 Y-6.95 Z0.3 F1920.0 E11543.063
G1 X-37.6 Y-5.61 Z0.3 F1920.0 E11546.176
G1 X-36.82 Y-5.43 Z0.3 F1920.0 E11547.483
G1 X-38.15 Y-6.75 Z0.3 F1920.0 E11550.551
G1 X-37.35 Y-6.55 Z0.3 F1920.0 E11551.898
G1 X-36.05 Y-5.25 Z0.3 F1920.0 E11554.919
G1 X-35.27 Y-5.06 Z0.3 F1920.0 E11556.226
G1 X-36.56 Y-6.34 Z0.3 F1920.0 E11559.202
G1 X-35.76 Y-6.14 Z0.3 F1920.0 E11560.549
G1 X-34.5 Y-4.88 Z0.3 F1920.0 E11563.478
G1 X-33.72 Y-4.7 Z0.3 F1920.0 E11564.787
G1 X-34.97 Y-5.94 Z0.3 F1920.0 E11567.669
;M103
G1 X-33.2 Y-6.33 Z0.3 F3600.0
G1 X-32.6 Y-7.7 Z0.3 F3600.0
G1 X-33.68 Y-8.47 Z0.3 F3600.0
G1 X-33.38 Y-9.09 Z0.3 F2880.0
;M101
G1 X-38.9 Y-14.61 Z0.3 F1920.0 E11580.487
G1 X-40.46 Y-15.58 Z0.3 F1920.0 E11583.497
;M103
G1 X-39.16 Y-14.28 Z0.3 F2880.0
;M101
G1 X-34.74 Y-9.86 Z0.3 F1920.0 E11593.75
;M103
G1 X-36.11 Y-10.64 Z0.3 F2880.0
;M101
G1 X-42.02 Y-16.54 Z0.3 F1920.0 E11607.459
G1 X-43.57 Y-17.51 Z0.3 F1920.0 E11610.469
;M103
G1 X-42.28 Y-16.21 Z0.3 F2880.0
;M101
G1 X-37.48 Y-11.41 Z0.3 F1920.0 E11621.614
;M103
G1 X-38.84 Y-12.19 Z0.3 F2880.0
;M101
G1 X-45.13 Y-18.47 Z0.3 F1920.0 E11636.215
G1 X-46.69 Y-19.44 Z0.3 F1920.0 E11639.225
;M103
G1 X-45.39 Y-18.14 Z0.3 F2880.0
;M101
G1 X-40.21 Y-12.96 Z0.3 F1920.0 E11651.262
;M103
G1 X-41.58 Y-13.73 Z0.3 F2880.0
;M101
G1 X-48.25 Y-20.41 Z0.3 F1920.0 E11666.754
G1 X-49.81 Y-21.37 Z0.3 F1920.0 E11669.765
;M103
G1 X-48.51 Y-20.08 Z0.3 F2880.0
;M101
G1 X-42.94 Y-14.51 Z0.3 F1920.0 E11682.693
;M103
G1 X-44.31 Y-15.28 Z0.3 F2880.0
;M101
G1 X-51.37 Y-22.34 Z0.3 F1920.0 E11699.077
G1 X-52.92 Y-23.3 Z0.3 F1920.0 E11702.088
;M103
G1 X-51.63 Y-22.01 Z0.3 F2880.0
;M101
G1 X-45.68 Y-16.06 Z0.3 F1920.0 E11715.907
;M103
G1 X-47.04 Y-16.83 Z0.3 F2880.0
;M101
G1 X-54.48 Y-24.27 Z0.3 F1920.0 E11733.182
G1 X-56.04 Y-25.24 Z0.3 F1920.0 E11736.192
;M103
G1 X-54.74 Y-23.94 Z0.3 F2880.0
;M101
G1 X-48.41 Y-17.6 Z0.3 F1920.0 E11750.904
;M103
G1 X-49.78 Y-18.38 Z0.3 F2880.0
;M101
G1 X-57.6 Y-26.2 Z0.3 F1920.0 E11769.071
G1 X-59.16 Y-27.17 Z0.3 F1920.0 E11772.081
;M103
G1 X-57.86 Y-25.87 Z0.3 F2880.0
;M101
G1 X-51.14 Y-19.15 Z0.3 F1920.0 E11787.685
;M103
G1 X-52.51 Y-19.93 Z0.3 F2880.0
;M101
G1 X-60.35 Y-27.76 Z0.3 F1920.0 E11805.882
G1 X-60.53 Y-27.36 Z0.3 F1920.0 E11806.614
G1 X-53.87 Y-20.7 Z0.3 F1920.0 E11822.077
;M103
G1 X-55.24 Y-21.48 Z0.3 F2880.0
;M101
G1 X-60.72 Y-26.96 Z0.3 F1920.0 E11834.807
G1 X-60.91 Y-26.55 Z0.3 F1920.0 E11835.539
G1 X-56.61 Y-22.25 Z0.3 F1920.0 E11845.533
;M103
G1 X-57.97 Y-23.02 Z0.3 F2880.0
;M101
G1 X-61.1 Y-26.15 Z0.3 F1920.0 E11852.792
G1 X-61.29 Y-25.75 Z0.3 F1920.0 E11853.524
G1 X-59.34 Y-23.8 Z0.3 F1920.0 E11858.047
;M103
G1 X-60.71 Y-24.57 Z0.3 F2880.0
;M101
G1 X-61.48 Y-25.34 Z0.3 F1920.0 E11859.836
;M103
G1 X-50.78 Y-22.72 Z0.3 F3600.0
G1 X-31.16 Y-10.78 Z0.3 F3600.0
G1 X-30.04 Y-12.23 Z0.3 F3600.0
G1 X-34.17 Y-19.36 Z0.3 F2880.0
;M101
G1 X-3.76 Y11.06 Z0.3 F1920.0 E11930.457
G1 X-4.0 Y11.41 Z0.3 F1920.0 E11931.157
G1 X-40.74 Y-25.34 Z0.3 F1920.0 E12016.472
;M103
G1 X-40.92 Y-25.66 Z0.3 F3600.0
;M101
G1 X-40.48 Y-26.1 Z0.3 F1920.0 E12017.488
G1 X-27.7 Y-13.46 Z0.3 F1920.0 E12046.996
G1 X-25.66 Y-15.58 Z0.3 F1920.0 E12051.82
G1 X-44.48 Y-46.78 Z0.3 F1920.0 E12111.643
G1 X-41.1 Y-48.42 Z0.3 F1920.0 E12117.823
G1 X-23.62 Y-16.45 Z0.3 F1920.0 E12177.642
G1 X-21.78 Y-17.04 Z0.3 F1920.0 E12180.799
G1 X-26.41 Y-35.21 Z0.3 F1920.0 E12211.587
G1 X-25.06 Y-35.81 Z0.3 F1920.0 E12214.016
G1 X-20.31 Y-17.63 Z0.3 F1920.0 E12244.875
G1 X-17.4 Y-17.64 Z0.3 F1920.0 E12249.654
G1 X-17.95 Y-55.12 Z0.3 F1920.0 E12311.202
G1 X-14.95 Y-55.06 Z0.3 F1920.0 E12316.134
G1 X-15.5 Y-17.73 Z0.3 F1920.0 E12377.432
G1 X-12.55 Y-17.23 Z0.3 F1920.0 E12382.342
G1 X-8.05 Y-35.58 Z0.3 F1920.0 E12413.373
G1 X-6.26 Y-35.18 Z0.3 F1920.0 E12416.384
G1 X-10.86 Y-16.83 Z0.3 F1920.0 E12447.436
G1 X-8.61 Y-15.91 Z0.3 F1920.0 E12451.439
G1 X8.85 Y-48.14 Z0.3 F1920.0 E12511.619
G1 X11.68 Y-46.77 Z0.3 F1920.0 E12516.767
G1 X-6.95 Y-15.05 Z0.3 F1920.0 E12577.166
G1 X-4.65 Y-13.09 Z0.3 F1920.0 E12582.114
G1 X8.34 Y-26.6 Z0.3 F1920.0 E12612.886
G1 X9.46 Y-25.62 Z0.3 F1920.0 E12615.324
G1 X-3.49 Y-12.15 Z0.3 F1920.0 E12646.001
G1 X-1.68 Y-9.89 Z0.3 F1920.0 E12650.747
G1 X28.51 Y-28.57 Z0.3 F1920.0 E12709.039
G1 X30.52 Y-25.71 Z0.3 F1920.0 E12714.777
G1 X-0.97 Y-7.81 Z0.3 F1920.0 E12774.241
G1 X0.21 Y-5.03 Z0.3 F1920.0 E12779.192
G1 X17.66 Y-10.08 Z0.3 F1920.0 E12809.022
G1 X18.24 Y-8.28 Z0.3 F1920.0 E12812.121
G1 X9.26 Y-6.09 Z0.3 F1920.0 E12827.29
G1 X8.82 Y-5.73 Z0.3 F1920.0 E12828.229
G1 X8.93 Y-5.02 Z0.3 F1920.0 E12829.403
G1 X9.43 Y-4.79 Z0.3 F1920.0 E12830.313
G1 X68.77 Y-5.45 Z0.3 F1920.0 E12927.74
G1 X68.73 Y4.72 Z0.3 F1920.0 E12944.433
G1 X9.49 Y5.03 Z0.3 F1920.0 E13041.707
G1 X8.98 Y5.26 Z0.3 F1920.0 E13042.618
G1 X8.87 Y5.97 Z0.3 F1920.0 E13043.799
G1 X9.29 Y6.35 Z0.3 F1920.0 E13044.729
G1 X17.6 Y8.94 Z0.3 F1920.0 E13059.025
G1 X17.16 Y10.44 Z0.3 F1920.0 E13061.595
G1 X-0.25 Y5.79 Z0.3 F1920.0 E13091.184
G1 X-1.39 Y7.96 Z0.3 F1920.0 E13095.204
G1 X29.95 Y26.06 Z0.3 F1920.0 E13154.635
G1 X28.22 Y28.64 Z0.3 F1920.0 E13159.723
G1 X-2.41 Y9.73 Z0.3 F1920.0 E13218.832
G1 X-3.79 Y11.73 Z0.3 F1920.0 E13222.817
G1 X8.82 Y25.28 Z0.3 F1920.0 E13253.2
G1 X7.5 Y26.51 Z0.3 F1920.0 E13256.166
G1 X-5.14 Y12.97 Z0.3 F1920.0 E13286.584
G1 X-7.25 Y14.37 Z0.3 F1920.0 E13290.749
G1 X11.39 Y46.29 Z0.3 F1920.0 E13351.425
G1 X8.16 Y47.92 Z0.3 F1920.0 E13357.372
G1 X-9.02 Y15.46 Z0.3 F1920.0 E13417.671
G1 X-11.21 Y16.59 Z0.3 F1920.0 E13421.721
G1 X-6.54 Y34.62 Z0.3 F1920.0 E13452.309
G1 X-8.47 Y35.03 Z0.3 F1920.0 E13455.548
G1 X-12.86 Y16.7 Z0.3 F1920.0 E13486.49
G1 X-15.26 Y17.09 Z0.3 F1920.0 E13490.495
G1 X-14.38 Y55.13 Z0.3 F1920.0 E13552.959
G1 X-18.15 Y55.13 Z0.3 F1920.0 E13559.149
G1 X-17.3 Y16.98 Z0.3 F1920.0 E13621.8
G1 X-19.7 Y16.48 Z0.3 F1920.0 E13625.837
G1 X-24.27 Y34.78 Z0.3 F1920.0 E13656.811
G1 X-26.3 Y34.48 Z0.3 F1920.0 E13660.178
G1 X-21.45 Y16.58 Z0.3 F1920.0 E13690.637
G1 X-23.45 Y15.67 Z0.3 F1920.0 E13694.244
G1 X-41.2 Y47.64 Z0.3 F1920.0 E13754.272
G1 X-43.88 Y46.03 Z0.3 F1920.0 E13759.402
G1 X-25.24 Y14.66 Z0.3 F1920.0 E13819.323
G1 X-27.22 Y12.77 Z0.3 F1920.0 E13823.812
